public/luts/film/leneu-chrome.cube
TITLE "Generated by Resolve"
LUT_3D_SIZE 9
0.00488289 0.00488289 0.00488289
0.0598306 0.00788891 0.00543221
0.184131 0.0140536 0.011841
0.356466 0.0262455 0.0258488
0.539986 0.0532692 0.0497139
0.697536 0.0966049 0.0864271
0.813397 0.157061 0.147021
0.899718 0.232914 0.224125
0.946059 0.315084 0.310719
0.00901808 0.06421 0.015671
0.0747387 0.0675212 0.0190433
0.190692 0.0791028 0.0270848
0.351675 0.0990463 0.0417945
0.525002 0.130495 0.0678111
0.678508 0.177661 0.108812
0.794842 0.238407 0.166537
0.88484 0.30837 0.240284
0.949569 0.380102 0.324865
0.0265812 0.182071 0.0403296
0.0987106 0.188266 0.0472114
0.221698 0.198444 0.0582742
0.375586 0.222034 0.0768902
0.534157 0.256016 0.103777
0.675242 0.298238 0.146151
0.78587 0.349065 0.200595
0.876158 0.406744 0.269734
0.934203 0.465126 0.346334
0.0545968 0.353964 0.0824292
0.136385 0.359045 0.0893263
0.265797 0.36759 0.102892
0.412863 0.381323 0.124071
0.560571 0.40444 0.152438
0.685512 0.436896 0.193072
0.789441 0.475135 0.245853
0.874464 0.517189 0.307408
0.938552 0.562478 0.37763
0.0979477 0.521935 0.135439
0.187289 0.524926 0.145388
0.317632 0.529946 0.161746
0.456138 0.53991 0.182925
0.59028 0.556558 0.213489
0.704753 0.576364 0.252354
0.797665 0.600198 0.29865
0.8766 0.628733 0.354772
0.932342 0.659907 0.421942
0.151461 0.661006 0.196246
0.238911 0.663905 0.209033
0.365103 0.66804 0.224613
0.495842 0.673106 0.246098
0.616754 0.681407 0.274098
0.722377 0.692897 0.310613
0.809857 0.707347 0.355383
0.884703 0.724758 0.40708
0.940658 0.745235 0.466316
0.184085 0.765484 0.246845
0.274113 0.767712 0.260197
0.397223 0.770245 0.276768
0.523095 0.773434 0.300526
0.64004 0.778561 0.329809
0.742458 0.785763 0.364248
0.826551 0.795621 0.404791
0.899489 0.808362 0.452155
0.951034 0.820981 0.506371
0.190677 0.848707 0.278401
0.281239 0.850919 0.293996
0.412406 0.852842 0.314244
0.535836 0.855726 0.341283
0.655497 0.859525 0.370336
0.75639 0.863905 0.399634
0.837705 0.871122 0.434836
0.907866 0.877012 0.474845
0.953765 0.879408 0.516045
0.158816 0.919188 0.27042
0.240864 0.919982 0.281758
0.355718 0.919646 0.296605
0.479942 0.920134 0.317998
0.618509 0.921065 0.342779
0.729686 0.924102 0.370443
0.817838 0.926863 0.401968
0.894163 0.929183 0.437613
0.956054 0.929961 0.480354
0.00698863 0.00793469 0.0382239
0.0679332 0.0108034 0.041413
0.187778 0.0162356 0.0501869
0.355581 0.032517 0.0704967
0.532662 0.0593881 0.099733
0.689235 0.103868 0.143999
0.804532 0.162997 0.205478
0.893645 0.237079 0.278462
0.942901 0.317418 0.358755
0.011902 0.076173 0.0764935
0.0802167 0.0804456 0.078996
0.197238 0.0914473 0.0860151
0.358068 0.111238 0.105074
0.528969 0.143359 0.132906
0.677058 0.189975 0.175738
0.79205 0.246708 0.235019
0.881056 0.315648 0.305074
0.94699 0.385 0.379141
0.0300298 0.205829 0.123598
0.104311 0.211139 0.128038
0.230106 0.222751 0.136202
0.385214 0.243091 0.155596
0.539986 0.274281 0.184726
0.676112 0.31397 0.225727
0.784863 0.362142 0.278172
0.873716 0.415824 0.339727
0.933333 0.471382 0.406317
0.0590982 0.377523 0.182589
0.142428 0.382147 0.189258
0.27422 0.38851 0.202564
0.420523 0.402045 0.220478
0.565026 0.423896 0.247837
0.688212 0.453925 0.285481
0.79086 0.487816 0.328496
0.873487 0.526925 0.380697
0.937499 0.570748 0.442405
0.103243 0.541176 0.252872
0.193072 0.544686 0.261952
0.322927 0.54847 0.272984
0.462028 0.557687 0.290806
0.596185 0.571542 0.316777
0.707561 0.589944 0.346593
0.798535 0.611719 0.38468
0.876432 0.63856 0.432792
0.934615 0.668208 0.489586
0.149569 0.673091 0.316533
0.240711 0.675883 0.326955
0.367407 0.678386 0.338811
0.498665 0.684092 0.354986
0.620493 0.692393 0.3785
0.723415 0.703166 0.406928
0.810162 0.71693 0.441657
0.884779 0.734173 0.4851
0.938918 0.754208 0.535927
0.178088 0.773434 0.367315
0.272389 0.776013 0.377966
0.396521 0.778256 0.390845
0.525689 0.78143 0.410605
0.641337 0.786633 0.433967
0.743908 0.79379 0.461448
0.828534 0.803647 0.493782
0.900862 0.815808 0.531701
0.951583 0.825971 0.572549
0.179706 0.854963 0.403769
0.277623 0.857267 0.417334
0.408042 0.858701 0.432181
0.533776 0.862211 0.452171
0.651972 0.865782 0.473442
0.755062 0.870344 0.497032
0.837125 0.875837 0.52311
0.906752 0.880827 0.551431
0.955184 0.882368 0.580911
0.14609 0.920974 0.397208
0.233143 0.921141 0.406363
0.336477 0.920287 0.41561
0.468803 0.921172 0.431998
0.606165 0.922621 0.449607
0.722545 0.925582 0.470756
0.814252 0.928954 0.493492
0.891127 0.931716 0.518761
0.957198 0.932326 0.550881
0.00968948 0.0106203 0.101411
0.0767987 0.0144961 0.100053
0.197391 0.0239872 0.110811
0.360403 0.0413519 0.134035
0.531624 0.0702525 0.166857
0.68394 0.114168 0.217166
0.797574 0.172564 0.277684
0.887114 0.244129 0.344213
0.942473 0.32166 0.414878
0.0176699 0.091783 0.16318
0.0892042 0.0970169 0.162295
0.210086 0.108797 0.171344
0.372183 0.127825 0.190265
0.537575 0.160067 0.220752
0.678035 0.205966 0.265095
0.790249 0.260151 0.315114
0.876844 0.325978 0.376532
0.943938 0.391333 0.440314
0.033814 0.231708 0.237079
0.115221 0.235782 0.239048
0.243763 0.24715 0.245274
0.396384 0.266972 0.259236
0.547875 0.29482 0.285374
0.679835 0.332357 0.321401
0.785428 0.377737 0.365728
0.872496 0.426413 0.416205
0.934554 0.480568 0.47361
0.0688945 0.402441 0.309438
0.153246 0.405585 0.312581
0.284947 0.412695 0.319707
0.430655 0.425605 0.33431
0.571481 0.445258 0.354894
0.693172 0.471763 0.384115
0.792203 0.503075 0.419654
0.872129 0.539681 0.461799
0.933715 0.581216 0.513527
0.107988 0.561044 0.380133
0.201938 0.564111 0.385397
0.330648 0.5682 0.392462
0.470527 0.575845 0.404501
0.600732 0.588251 0.421942
0.709422 0.603952 0.444816
0.79942 0.624384 0.475486
0.875898 0.649332 0.51397
0.936904 0.677623 0.560494
0.145037 0.686183 0.438483
0.244541 0.688396 0.446189
0.368093 0.69102 0.454582
0.502266 0.696269 0.465537
0.624506 0.704173 0.482872
0.726024 0.713909 0.504997
0.811933 0.727031 0.532509
0.887053 0.743694 0.565942
0.939483 0.762631 0.605371
0.174228 0.782345 0.487526
0.274647 0.784985 0.49633
0.395666 0.787182 0.506584
0.527504 0.78996 0.520653
0.644511 0.795209 0.538354
0.745525 0.803006 0.558343
0.828962 0.812512 0.58143
0.900557 0.823133 0.608942
0.95137 0.831067 0.637156
0.166705 0.861753 0.522545
0.275242 0.863172 0.53312
0.401251 0.864713 0.544182
0.533303 0.867369 0.558572
0.647913 0.870588 0.572686
0.752071 0.874891 0.588922
0.835508 0.879637 0.606226
0.904982 0.883436 0.625513
0.956588 0.884184 0.645502
0.135485 0.920546 0.515435
0.224277 0.920455 0.521904
0.315297 0.920256 0.527077
0.45597 0.921508 0.538018
0.591012 0.923674 0.551034
0.713649 0.927062 0.56611
0.808881 0.930922 0.581888
0.88777 0.93402 0.598779
0.956054 0.934951 0.620951
0.0142977 0.0187533 0.189853
0.0892195 0.0242313 0.188373
0.212436 0.0352178 0.199634
0.369558 0.0557412 0.222309
0.539757 0.0853437 0.2598
0.683818 0.129213 0.304921
0.793912 0.185092 0.356481
0.881331 0.254643 0.41503
0.945815 0.328679 0.47631
0.0235599 0.112688 0.276432
0.104891 0.118517 0.275456
0.231952 0.130465 0.281392
0.389029 0.149737 0.295995
0.546761 0.182483 0.323003
0.681773 0.225071 0.35758
0.789181 0.278737 0.401099
0.87509 0.338872 0.452781
0.938933 0.400153 0.508003
0.0474556 0.261326 0.361074
0.131685 0.26598 0.359518
0.260471 0.27512 0.362005
0.411612 0.2925 0.371466
0.55848 0.318395 0.389166
0.686107 0.353353 0.417823
0.787686 0.394873 0.455024
0.871702 0.440269 0.495674
0.934569 0.491722 0.543557
0.0788891 0.427344 0.434791
0.169574 0.431083 0.435874
0.299413 0.437171 0.438193
0.444297 0.448096 0.446189
0.580728 0.46627 0.461097
0.69865 0.490288 0.482551
0.793347 0.519844 0.50956
0.872206 0.553292 0.543557
0.930632 0.592096 0.584131
0.111177 0.578851 0.498817
0.213916 0.58233 0.502174
0.340536 0.586847 0.506493
0.47718 0.59382 0.513405
0.606546 0.604608 0.524727
0.714229 0.618936 0.540902
0.802441 0.637537 0.564462
0.87744 0.660517 0.593576
0.939879 0.687602 0.629892
0.149615 0.698466 0.552453
0.252338 0.700938 0.556924
0.373754 0.704112 0.562219
0.506539 0.708415 0.569284
0.629679 0.715541 0.581735
0.730922 0.724971 0.597559
0.815106 0.737804 0.617517
0.889113 0.753491 0.642329
0.941344 0.770733 0.670222
0.181109 0.790829 0.597055
0.277638 0.79321 0.60235
0.396201 0.795819 0.609766
0.5337 0.799146 0.620249
0.64976 0.80528 0.631235
0.747646 0.812268 0.644587
0.830396 0.820523 0.660334
0.900801 0.829465 0.678294
0.949691 0.835096 0.696345
0.173342 0.86479 0.625315
0.274998 0.865904 0.631235
0.390921 0.867399 0.637995
0.526696 0.86949 0.646464
0.641566 0.873396 0.656077
0.745937 0.877821 0.666758
0.831708 0.881666 0.678676
0.901732 0.885267 0.691371
0.956039 0.886412 0.703258
0.138216 0.918654 0.615061
0.209369 0.918944 0.618021
0.294606 0.919799 0.621683
0.440208 0.921355 0.628412
0.574395 0.924178 0.637629
0.700557 0.928084 0.648432
0.801968 0.932265 0.659358
0.883741 0.936049 0.671763
0.953262 0.936934 0.686809
0.0242771 0.0323796 0.304921
0.108278 0.0411688 0.302556
0.230243 0.0535592 0.311635
0.388998 0.0744793 0.330907
0.549203 0.105013 0.359731
0.68426 0.148058 0.395407
0.791348 0.203021 0.439216
0.876249 0.269825 0.489937
0.94667 0.340124 0.540505
0.0408789 0.139773 0.398642
0.12578 0.145022 0.395499
0.254902 0.155596 0.397314
0.407614 0.176928 0.405295
0.556558 0.206943 0.42501
0.68661 0.248402 0.45095
0.790005 0.299901 0.489097
0.873747 0.353948 0.531182
0.933669 0.412802 0.574762
0.0603647 0.28983 0.4804
0.150561 0.294759 0.477363
0.281071 0.304265 0.476631
0.428565 0.319402 0.481605
0.571618 0.344366 0.492958
0.692958 0.376867 0.514717
0.791363 0.413458 0.541863
0.872694 0.456123 0.573693
0.93579 0.504829 0.610727
0.0912337 0.451743 0.55053
0.187716 0.456062 0.547463
0.317388 0.462181 0.547601
0.458152 0.472923 0.55201
0.590509 0.489387 0.560616
0.703471 0.510491 0.574121
0.795941 0.536385 0.593698
0.873152 0.568444 0.619791
0.928817 0.603815 0.650599
0.127321 0.596445 0.604532
0.226246 0.599817 0.605371
0.351507 0.603525 0.606546
0.486229 0.609628 0.610224
0.612131 0.619654 0.617395
0.719509 0.633051 0.628061
0.806439 0.650507 0.644175
0.880003 0.672114 0.66566
0.942107 0.697902 0.692103
0.162814 0.709758 0.649088
0.261311 0.712215 0.650828
0.381308 0.715373 0.653346
0.511742 0.72015 0.658503
0.63592 0.727123 0.667277
0.73637 0.736492 0.677211
0.819028 0.748531 0.691127
0.892134 0.763729 0.708186
0.945159 0.777966 0.727016
0.19234 0.79881 0.685756
0.277455 0.801816 0.689189
0.3991 0.804608 0.694804
0.538155 0.808225 0.70103
0.654704 0.813626 0.70753
0.749111 0.819364 0.716457
0.829938 0.826642 0.726665
0.899535 0.833356 0.737743
0.947692 0.83743 0.747707
0.182773 0.866072 0.704707
0.264347 0.866804 0.707012
0.377798 0.868635 0.711162
0.516365 0.870069 0.715816
0.634943 0.874739 0.723278
0.738842 0.879423 0.731701
0.824781 0.883375 0.739406
0.897414 0.886885 0.746593
0.952712 0.888014 0.753964
0.138338 0.916823 0.695674
0.182605 0.91754 0.696864
0.279347 0.918791 0.698894
0.422095 0.919936 0.70222
0.557641 0.923858 0.709346
0.683635 0.928115 0.716701
0.7935 0.932525 0.725536
0.878569 0.937484 0.733349
0.949218 0.938186 0.740734
0.0424201 0.0571756 0.431464
0.130388 0.0648814 0.427298
0.257374 0.0784619 0.432807
0.409339 0.10013 0.444282
0.558968 0.130999 0.4636
0.688487 0.170291 0.49041
0.79057 0.225483 0.526741
0.873915 0.286931 0.566995
0.940963 0.352331 0.60528
0.0559854 0.169116 0.519371
0.148211 0.175769 0.514778
0.278294 0.188174 0.512444
0.425711 0.207553 0.514672
0.569543 0.235706 0.528374
0.693111 0.275044 0.548272
0.791409 0.321126 0.575189
0.872816 0.371817 0.605646
0.932113 0.42623 0.638788
0.079469 0.318944 0.590951
0.171084 0.325521 0.586648
0.304112 0.334493 0.582452
0.448356 0.34873 0.583276
0.585443 0.370871 0.592172
0.701656 0.399512 0.605127
0.794919 0.432227 0.62269
0.872923 0.47219 0.646464
0.936049 0.517159 0.672953
0.1178 0.476234 0.646784
0.205676 0.480293 0.644327
0.337118 0.486091 0.643015
0.474235 0.495979 0.644312
0.601312 0.509941 0.647822
0.709316 0.528679 0.657038
0.79852 0.553353 0.669734
0.873747 0.583032 0.687678
0.929595 0.6168 0.71104
0.147066 0.613519 0.689952
0.238346 0.616358 0.689387
0.365789 0.620142 0.691173
0.496895 0.626322 0.692271
0.618341 0.635142 0.695964
0.724056 0.647929 0.703243
0.809689 0.664424 0.713664
0.882719 0.685023 0.72871
0.941497 0.708141 0.746838
0.177996 0.720409 0.727169
0.267918 0.722927 0.728801
0.390173 0.726589 0.729885
0.517845 0.732296 0.733623
0.641428 0.738857 0.73875
0.743236 0.747158 0.745937
0.824796 0.758587 0.75407
0.894026 0.771542 0.765347
0.948669 0.78233 0.776471
0.19884 0.805066 0.758511
0.278523 0.807691 0.760479
0.406027 0.811505 0.76286
0.534737 0.814878 0.765332
0.653178 0.81825 0.769162
0.748989 0.823575 0.774777
0.827817 0.829557 0.780072
0.897597 0.835035 0.786877
0.947982 0.838407 0.792828
0.184375 0.865415 0.766918
0.248859 0.866407 0.767742
0.368353 0.867704 0.770581
0.49984 0.869734 0.773816
0.628138 0.874189 0.778317
0.729412 0.879057 0.784482
0.816495 0.883543 0.79028
0.891295 0.886961 0.794812
0.951019 0.888731 0.799313
0.125231 0.914488 0.758892
0.139284 0.915618 0.757992
0.262272 0.916976 0.760082
0.397955 0.918532 0.761837
0.537316 0.922225 0.766995
0.665751 0.926726 0.773388
0.779858 0.932235 0.780026
0.869718 0.936721 0.784543
0.946563 0.939086 0.790005
0.0655985 0.0857557 0.556176
0.158953 0.0953231 0.552499
0.28426 0.109789 0.55314
0.430472 0.129046 0.556939
0.571206 0.159503 0.567834
0.693233 0.200778 0.585367
0.790906 0.25034 0.610544
0.87158 0.307012 0.638636
0.932967 0.366537 0.666712
0.0844739 0.202655 0.630411
0.178073 0.210086 0.625223
0.306203 0.220691 0.620478
0.448051 0.239307 0.619501
0.583658 0.267353 0.623972
0.700725 0.301961 0.63592
0.793973 0.343328 0.653254
0.87219 0.389868 0.673808
0.933349 0.440864 0.698161
0.106355 0.348989 0.685389
0.201541 0.355581 0.680415
0.329198 0.364263 0.674891
0.467231 0.37734 0.673152
0.598062 0.396796 0.67628
0.708034 0.421729 0.683452
0.797009 0.453239 0.695476
0.872633 0.489921 0.71104
0.933242 0.532326 0.730587
0.138323 0.497276 0.726192
0.229709 0.502327 0.724392
0.354864 0.508125 0.721584
0.487739 0.517891 0.72134
0.611933 0.529885 0.722759
0.716564 0.547555 0.72781
0.802609 0.570275 0.736233
0.875807 0.597818 0.747707
0.933333 0.629465 0.764599
0.162753 0.628031 0.762173
0.25536 0.631724 0.761913
0.380102 0.635233 0.761456
0.508614 0.640513 0.76112
0.627222 0.650172 0.762692
0.728893 0.662867 0.76643
0.812848 0.678798 0.773541
0.885969 0.697108 0.784726
0.939651 0.716518 0.796643
0.185 0.730266 0.793423
0.276768 0.734005 0.794385
0.403159 0.738064 0.794339
0.530495 0.74287 0.796216
0.646998 0.749081 0.799023
0.745968 0.757214 0.803082
0.8262 0.765927 0.808988
0.89337 0.776089 0.813535
0.948333 0.784268 0.819898
0.189303 0.808789 0.815045
0.276448 0.810925 0.815854
0.404959 0.812543 0.815427
0.524483 0.815213 0.817029
0.644541 0.818967 0.819883
0.745418 0.82414 0.823896
0.82594 0.829618 0.828351
0.895109 0.834775 0.832319
0.948577 0.837873 0.833585
0.171328 0.862684 0.81857
0.241077 0.863813 0.819638
0.357107 0.864988 0.820615
0.47953 0.868132 0.822721
0.61207 0.872526 0.82594
0.719387 0.877165 0.830274
0.806577 0.881361 0.834134
0.884565 0.885237 0.837858
0.95111 0.887678 0.840848
0.0928969 0.91133 0.812696
0.128664 0.912627 0.812085
0.243442 0.913756 0.811704
0.358999 0.915557 0.812818
0.515145 0.918441 0.816983
0.650614 0.924102 0.824201
0.761273 0.929931 0.827802
0.857603 0.935073 0.83151
0.941344 0.937514 0.834882
0.0948653 0.12079 0.667704
0.191043 0.129046 0.664668
0.313466 0.142351 0.662318
0.450507 0.163882 0.66038
0.584604 0.193103 0.664622
0.699382 0.231846 0.673075
0.792966 0.277012 0.687602
0.869795 0.326818 0.70486
0.928634 0.382879 0.725414
0.113405 0.236561 0.722652
0.206577 0.243397 0.716213
0.333257 0.255177 0.710399
0.469169 0.273411 0.707759
0.599359 0.298146 0.706661
0.708675 0.327932 0.713222
0.796124 0.365545 0.723537
0.872572 0.407706 0.737102
0.9364 0.456046 0.754147
0.132235 0.37557 0.760082
0.22916 0.381903 0.756085
0.352529 0.39118 0.751141
0.4851 0.403662 0.748867
0.608316 0.421668 0.749569
0.713222 0.444785 0.753094
0.80119 0.47277 0.760845
0.875395 0.506203 0.770764
0.930526 0.546532 0.783352
0.154772 0.515785 0.793881
0.253361 0.521065 0.790692
0.372732 0.52726 0.788571
0.501671 0.535821 0.787381
0.622766 0.548486 0.787671
0.725902 0.565316 0.790967
0.808347 0.585977 0.795789
0.878462 0.611795 0.802792
0.936599 0.641474 0.815076
0.179095 0.63949 0.822293
0.275563 0.643824 0.823499
0.392874 0.64863 0.82324
0.522301 0.6551 0.822126
0.638819 0.664698 0.82182
0.735622 0.677073 0.825193
0.81677 0.690974 0.830564
0.886534 0.706203 0.836057
0.937072 0.719722 0.84036
0.18941 0.737667 0.850111
0.289281 0.74168 0.850172
0.411368 0.746258 0.850156
0.539879 0.749813 0.850416
0.646448 0.754818 0.850996
0.74197 0.760983 0.852399
0.822278 0.76846 0.854398
0.889906 0.776837 0.856184
0.944427 0.783001 0.858381
0.183444 0.806165 0.862959
0.278523 0.807782 0.862974
0.390677 0.809216 0.862669
0.513268 0.812085 0.86302
0.63035 0.816556 0.864256
0.735805 0.822339 0.866239
0.818158 0.827161 0.868513
0.886259 0.831342 0.870146
0.946899 0.835187 0.87187
0.154406 0.857954 0.866865
0.236439 0.859037 0.86688
0.335103 0.859373 0.865476
0.457115 0.862547 0.867277
0.586908 0.866377 0.870054
0.704234 0.871489 0.873838
0.796429 0.876448 0.876753
0.876173 0.880949 0.879454
0.947188 0.884092 0.880461
0.0786297 0.905318 0.861326
0.146899 0.906203 0.860716
0.209003 0.907012 0.85922
0.323644 0.909407 0.860533
0.477668 0.91281 0.862974
0.620539 0.918242 0.867903
0.738323 0.924559 0.871489
0.844373 0.93048 0.875303
0.932754 0.934264 0.876951
0.127779 0.157107 0.762356
0.224063 0.16733 0.758099
0.340749 0.18024 0.752773
0.472541 0.198871 0.748043
0.596826 0.227146 0.746365
0.705272 0.260761 0.749554
0.794553 0.300999 0.757214
0.869139 0.347631 0.768093
0.930495 0.397925 0.782879
0.147219 0.2692 0.797421
0.239414 0.276448 0.792462
0.359167 0.287144 0.786648
0.488823 0.303258 0.781918
0.611521 0.324163 0.780346
0.714488 0.353079 0.782162
0.799786 0.385397 0.78732
0.87454 0.424674 0.797223
0.938033 0.470268 0.808042
0.163577 0.39881 0.825864
0.254063 0.405768 0.822538
0.376394 0.413825 0.818494
0.501732 0.425925 0.815778
0.619837 0.442832 0.814618
0.720821 0.464485 0.816007
0.805341 0.489906 0.820661
0.876493 0.522332 0.826841
0.929656 0.560204 0.835538
0.184787 0.533303 0.853651
0.274723 0.537896 0.851942
0.39237 0.544381 0.85034
0.51545 0.553292 0.848569
0.631724 0.565744 0.847822
0.731624 0.581582 0.849073
0.812268 0.600855 0.852155
0.880674 0.623896 0.855924
0.938079 0.647257 0.861311
0.202472 0.649561 0.880781
0.291752 0.654032 0.881239
0.407904 0.66009 0.881178
0.532723 0.668467 0.880278
0.648157 0.675563 0.877317
0.740505 0.684092 0.878126
0.816724 0.694591 0.878752
0.883818 0.706325 0.879515
0.937728 0.717098 0.881224
0.198062 0.738491 0.901442
0.294286 0.741054 0.901869
0.405097 0.743709 0.899779
0.52958 0.746227 0.896925
0.639765 0.751003 0.895781
0.732967 0.757351 0.896101
0.813672 0.76408 0.897078
0.882094 0.770291 0.897719
0.935927 0.775586 0.89691
0.186343 0.79765 0.908324
0.270802 0.799664 0.908217
0.369406 0.801755 0.907591
0.500633 0.80415 0.907027
0.614023 0.80885 0.907149
0.716121 0.813931 0.907805
0.801938 0.819226 0.909255
0.874678 0.823651 0.910964
0.938415 0.827466 0.911086
0.153948 0.848783 0.912596
0.219684 0.849439 0.91165
0.302647 0.850355 0.910689
0.431495 0.852842 0.912047
0.553964 0.856748 0.913725
0.675166 0.861646 0.915633
0.776699 0.867369 0.918196
0.860807 0.872068 0.919982
0.935973 0.87509 0.920058
0.0975204 0.895201 0.910002
0.134798 0.895857 0.90959
0.171771 0.896895 0.908965
0.291142 0.899199 0.909285
0.418891 0.902892 0.910262
0.570352 0.907759 0.912673
0.705379 0.914382 0.917266
0.820844 0.921279 0.92134
0.919951 0.926436 0.924178
