public/luts/film/leneu-neg.cube
TITLE "Generated by Resolve"
LUT_3D_SIZE 33
0.00643931 0.00851453 0.00781262
0.0200961 0.0102083 0.00624094
0.0350652 0.0123598 0.00541695
0.051194 0.0141299 0.00456245
0.0692149 0.0158083 0.00392157
0.0881361 0.0177005 0.00335698
0.108248 0.0202029 0.00303655
0.132998 0.0231174 0.00294499
0.15906 0.026215 0.00277714
0.186618 0.0296483 0.00262455
0.220737 0.033814 0.00238041
0.25919 0.0387427 0.00221256
0.301579 0.0445411 0.00215152
0.346365 0.0517281 0.002121
0.398596 0.0598764 0.00201419
0.456336 0.0690013 0.00190738
0.511009 0.0782788 0.00117494
0.563195 0.087892 0.000793469
0.614786 0.0980087 0.000732433
0.667231 0.10811 0.000610361
0.707805 0.118013 0.00230411
0.741375 0.127657 0.00538643
0.776898 0.137438 0.00891127
0.805371 0.147433 0.0161288
0.828809 0.157122 0.0251926
0.849012 0.166644 0.0349279
0.867796 0.176562 0.0460059
0.885145 0.18703 0.0587625
0.897551 0.19762 0.0739757
0.910521 0.208316 0.0882124
0.922362 0.219608 0.103563
0.927413 0.230884 0.123247
0.933639 0.242481 0.142687
0.0113069 0.0251469 0.0150149
0.0209964 0.0265202 0.0141604
0.0366674 0.0269932 0.0122988
0.0548867 0.0275883 0.0103609
0.0726635 0.029221 0.00907912
0.0905776 0.0320592 0.00822461
0.110048 0.0350805 0.00758373
0.132525 0.0385138 0.00775158
0.15758 0.0424048 0.00766003
0.184253 0.0467689 0.00737011
0.213138 0.0518349 0.0068513
0.251698 0.0577554 0.00657664
0.29189 0.0640726 0.00624094
0.331868 0.0707866 0.00569161
0.387091 0.07953 0.00544747
0.44271 0.0881819 0.00492866
0.495537 0.0966964 0.00402838
0.550301 0.106218 0.00463874
0.604685 0.115663 0.00515755
0.657572 0.124681 0.00521859
0.696468 0.133928 0.00819409
0.735164 0.143557 0.0120089
0.775128 0.152956 0.0159609
0.800534 0.162402 0.0243381
0.823804 0.171878 0.0333715
0.846494 0.181445 0.0426795
0.865766 0.191165 0.0539864
0.882338 0.201266 0.0668345
0.895689 0.211978 0.0814984
0.909712 0.222919 0.0952621
0.920134 0.234058 0.11162
0.926467 0.245655 0.13167
0.934646 0.257145 0.150088
0.0121767 0.0447547 0.0239567
0.0226291 0.0455787 0.0226444
0.0395819 0.0462959 0.0202487
0.0566873 0.0478065 0.0183719
0.0739757 0.049897 0.0169375
0.0922408 0.0527962 0.0164034
0.111055 0.0557107 0.0159609
0.13019 0.0589456 0.0157778
0.155703 0.0632029 0.0154421
0.181567 0.0672923 0.0150454
0.208499 0.071519 0.0145724
0.247395 0.0774701 0.0137179
0.286793 0.0838483 0.0128634
0.327413 0.0901503 0.0120394
0.382284 0.0979477 0.0117952
0.434897 0.105974 0.0116426
0.487327 0.114199 0.0116274
0.544305 0.122927 0.0117342
0.597864 0.131411 0.0118563
0.649042 0.140185 0.0127413
0.68983 0.149279 0.0164645
0.732448 0.15845 0.0198672
0.772915 0.167865 0.0242161
0.797162 0.176989 0.0330053
0.821973 0.185946 0.0414282
0.845914 0.19498 0.0500801
0.864881 0.205219 0.0619821
0.880339 0.215854 0.0753338
0.894423 0.226749 0.0892653
0.909148 0.237766 0.103105
0.918791 0.248981 0.120699
0.926955 0.260319 0.139315
0.936446 0.271885 0.157061
0.0132601 0.0656596 0.0336004
0.0246281 0.0660105 0.0315557
0.0409094 0.0669566 0.0294957
0.05832 0.0685893 0.0280003
0.0759289 0.0702678 0.0267338
0.0933242 0.0728313 0.0260929
0.111711 0.0758221 0.0255436
0.131975 0.078996 0.0250706
0.15613 0.0822461 0.0245823
0.182116 0.0860151 0.0240482
0.21178 0.0906233 0.0236515
0.246601 0.0957046 0.0226749
0.286229 0.101381 0.0219425
0.330236 0.107988 0.0216678
0.380041 0.115251 0.0212863
0.430518 0.122759 0.0210574
0.483925 0.130526 0.0205386
0.541604 0.138903 0.0200351
0.592966 0.147127 0.0205234
0.641581 0.155673 0.0221714
0.686564 0.164935 0.0255589
0.731533 0.174182 0.0284428
0.767971 0.183413 0.0337224
0.79324 0.192538 0.0422065
0.820523 0.201953 0.0501717
0.844129 0.211658 0.0596017
0.862852 0.221836 0.0713207
0.878599 0.232486 0.0847028
0.893858 0.242954 0.0979934
0.909102 0.253361 0.111345
0.918379 0.264591 0.129107
0.928191 0.276509 0.147036
0.938506 0.288792 0.164446
0.0142824 0.0865797 0.0434882
0.0264134 0.087068 0.0417182
0.0429084 0.0876631 0.039826
0.06009 0.088716 0.0383612
0.0773327 0.0907607 0.0374914
0.0942245 0.0931258 0.0366979
0.113313 0.0955825 0.035874
0.134203 0.0982986 0.0355535
0.157031 0.101411 0.035584
0.18436 0.105074 0.0349432
0.214084 0.10927 0.0341344
0.246616 0.114137 0.0333867
0.287953 0.120134 0.0328679
0.331304 0.126482 0.0324254
0.377066 0.133028 0.0319066
0.428992 0.140444 0.0314336
0.483314 0.147814 0.0305028
0.537789 0.155413 0.0298619
0.588434 0.163836 0.030869
0.637476 0.17261 0.0326543
0.684993 0.181811 0.0351263
0.729641 0.191241 0.0383154
0.7626 0.200778 0.0449226
0.790494 0.21001 0.0525521
0.820249 0.219379 0.0594644
0.842664 0.229389 0.0699474
0.861051 0.239567 0.0818036
0.877806 0.250248 0.0940261
0.893507 0.261143 0.106966
0.907774 0.272602 0.121614
0.917922 0.284245 0.138842
0.928893 0.295964 0.15555
0.938598 0.308003 0.172808
0.0187076 0.107271 0.0538949
0.0318914 0.107347 0.0520638
0.04654 0.108232 0.0508125
0.0618448 0.109606 0.0497902
0.078584 0.11133 0.0488136
0.0964675 0.113359 0.0480354
0.116457 0.115908 0.047776
0.136904 0.118364 0.0476692
0.159945 0.121187 0.047303
0.18764 0.125277 0.0468299
0.215869 0.129442 0.0460975
0.24892 0.134142 0.0453346
0.290593 0.139803 0.0448005
0.331029 0.145464 0.0444038
0.376181 0.151629 0.0436713
0.429297 0.158892 0.0426337
0.482872 0.166644 0.0418402
0.535027 0.174548 0.0416571
0.585351 0.1832 0.0427558
0.63566 0.192264 0.04448
0.683299 0.201511 0.0471504
0.726497 0.210361 0.0504768
0.758129 0.219608 0.0570535
0.789868 0.229297 0.0636606
0.822324 0.238804 0.0696117
0.84155 0.248981 0.0809949
0.859724 0.259525 0.0923629
0.878141 0.270802 0.103914
0.893568 0.282032 0.117235
0.906966 0.293385 0.132235
0.91841 0.305074 0.148913
0.930755 0.316258 0.164492
0.938735 0.327855 0.18204
0.0226902 0.128817 0.0660868
0.0347448 0.12932 0.0648508
0.0487526 0.130343 0.0636301
0.0646067 0.13193 0.0625162
0.081529 0.133562 0.0614786
0.0996109 0.135393 0.060914
0.118761 0.137484 0.0607309
0.139498 0.140078 0.0607767
0.163668 0.143313 0.0602579
0.190295 0.14699 0.0595102
0.218021 0.151141 0.0589761
0.253437 0.156054 0.0584268
0.292485 0.161273 0.0577249
0.330541 0.166598 0.0571908
0.378943 0.173465 0.0564889
0.431281 0.180789 0.0554665
0.482002 0.188174 0.0545968
0.533532 0.196231 0.0549783
0.585702 0.204822 0.056199
0.638361 0.213031 0.0570382
0.683177 0.221881 0.0596628
0.723003 0.231479 0.0638132
0.756527 0.241337 0.0694591
0.790204 0.251057 0.0750439
0.820859 0.261128 0.0818952
0.839734 0.27216 0.0932479
0.859129 0.282673 0.103548
0.878141 0.293309 0.114458
0.893736 0.304707 0.128344
0.906798 0.315999 0.143664
0.919173 0.327306 0.159167
0.931792 0.338857 0.174472
0.937652 0.351125 0.193759
0.0242466 0.151858 0.0800031
0.0383001 0.153033 0.0787366
0.0527047 0.154345 0.0774548
0.0677653 0.155566 0.0764172
0.0844739 0.157168 0.0760357
0.102525 0.159258 0.0759899
0.121935 0.161395 0.0754253
0.143923 0.164187 0.0748302
0.167849 0.167285 0.0741741
0.194034 0.170794 0.0736095
0.22356 0.174777 0.0729839
0.257801 0.179614 0.0723583
0.294743 0.185077 0.0719615
0.334203 0.19086 0.0714122
0.383886 0.197818 0.0704356
0.433127 0.204898 0.0696727
0.482383 0.212375 0.0692302
0.535744 0.22034 0.0692912
0.588556 0.228489 0.0694438
0.6421 0.23711 0.069688
0.682811 0.246464 0.0731823
0.72134 0.256046 0.0773632
0.758419 0.265934 0.0820935
0.791669 0.275822 0.0878767
0.818784 0.285679 0.0955978
0.839155 0.295689 0.105257
0.860609 0.306569 0.114794
0.878859 0.317601 0.126452
0.89369 0.329046 0.140597
0.906569 0.340993 0.156161
0.919188 0.353002 0.171527
0.93106 0.36466 0.186709
0.93637 0.376394 0.206439
0.027863 0.178058 0.0956283
0.040116 0.178943 0.0945754
0.0544442 0.18024 0.0935836
0.0707256 0.181964 0.093019
0.087953 0.183688 0.0922255
0.106737 0.185412 0.0912795
0.127352 0.187472 0.0905013
0.149126 0.189899 0.090074
0.170871 0.191775 0.0893416
0.198154 0.195148 0.0886397
0.229206 0.199878 0.0882582
0.260304 0.2047 0.0876783
0.298604 0.210361 0.0870375
0.342031 0.217044 0.0864881
0.389334 0.223926 0.0855421
0.436957 0.2309 0.0847944
0.486244 0.238117 0.0840162
0.5411 0.246479 0.0835889
0.593683 0.254688 0.0831464
0.643442 0.263279 0.0836347
0.683497 0.273075 0.0875563
0.723186 0.283024 0.0914626
0.761242 0.292882 0.0957961
0.792798 0.303044 0.102113
0.817609 0.313787 0.110918
0.840024 0.324239 0.119829
0.862806 0.334813 0.12842
0.879347 0.34609 0.141558
0.893355 0.357504 0.156008
0.90692 0.368627 0.170047
0.919127 0.379736 0.184695
0.929488 0.391165 0.201053
0.936629 0.402274 0.219867
0.0315099 0.206973 0.112703
0.0423438 0.208148 0.112428
0.0581674 0.209735 0.11133
0.0747234 0.211231 0.109941
0.0922866 0.213245 0.109041
0.111391 0.214954 0.108049
0.131655 0.2168 0.10724
0.152789 0.218875 0.106554
0.175982 0.221592 0.106096
0.204593 0.225742 0.105486
0.23389 0.230076 0.104875
0.264347 0.234821 0.104448
0.306508 0.24033 0.103304
0.350011 0.245945 0.102083
0.393576 0.251377 0.100755
0.443458 0.258335 0.0997787
0.494881 0.265385 0.0985122
0.548287 0.272892 0.097322
0.598749 0.282063 0.0974441
0.644877 0.291768 0.0992599
0.685786 0.302098 0.10277
0.72784 0.312322 0.106065
0.76466 0.322896 0.11136
0.793896 0.333181 0.118318
0.817868 0.343435 0.126619
0.84184 0.353674 0.13492
0.865461 0.364218 0.143572
0.879484 0.375265 0.157305
0.893629 0.386328 0.170703
0.90811 0.397757 0.184314
0.9196 0.40885 0.199603
0.929244 0.419959 0.216373
0.937774 0.431388 0.234668
0.0399786 0.240085 0.130282
0.052842 0.241321 0.12932
0.0653544 0.242634 0.12871
0.0791638 0.243824 0.127901
0.0961624 0.245274 0.127138
0.114946 0.246906 0.126329
0.135302 0.249027 0.125322
0.158343 0.25153 0.124269
0.183337 0.254734 0.123445
0.210239 0.258732 0.122866
0.240177 0.262821 0.122072
0.274159 0.26714 0.120851
0.31548 0.272572 0.119554
0.356588 0.278065 0.118364
0.399542 0.283818 0.11696
0.450935 0.291432 0.115633
0.503349 0.299519 0.114519
0.554589 0.307652 0.113756
0.602167 0.316442 0.114534
0.647074 0.325734 0.116655
0.69163 0.335546 0.1196
0.736339 0.34493 0.12221
0.767895 0.354589 0.128252
0.794461 0.364858 0.135805
0.82034 0.374792 0.142931
0.844434 0.384924 0.151202
0.865095 0.395285 0.160983
0.879713 0.406714 0.174304
0.894911 0.417578 0.186908
0.909209 0.428382 0.200336
0.920546 0.43949 0.216281
0.930282 0.449973 0.232746
0.939925 0.460166 0.249012
0.0443122 0.273686 0.148684
0.0547036 0.274464 0.148302
0.0673533 0.275242 0.147616
0.08365 0.276875 0.146746
0.101732 0.278523 0.145556
0.120653 0.280217 0.144198
0.141253 0.282475 0.142916
0.165393 0.286137 0.142443
0.18967 0.28954 0.141604
0.214572 0.292943 0.140551
0.248463 0.297398 0.139345
0.284947 0.302419 0.138262
0.321965 0.306905 0.136873
0.362982 0.312444 0.135454
0.409934 0.319417 0.134264
0.461326 0.326863 0.132647
0.512154 0.334234 0.130968
0.561181 0.342199 0.130694
0.608042 0.351659 0.132692
0.654322 0.360861 0.13489
0.698772 0.370062 0.137331
0.741573 0.379782 0.140642
0.76875 0.389593 0.14728
0.796094 0.399466 0.153735
0.823972 0.409369 0.160006
0.846281 0.419623 0.169375
0.86482 0.42977 0.180133
0.88072 0.439979 0.192218
0.897353 0.450355 0.204395
0.910735 0.460365 0.218143
0.921675 0.470283 0.233371
0.932021 0.480171 0.248798
0.941955 0.490074 0.264378
0.0496986 0.312367 0.168521
0.0616312 0.314092 0.168322
0.0755779 0.315831 0.167788
0.0904555 0.317189 0.166812
0.107332 0.318578 0.165469
0.12697 0.321096 0.164782
0.14818 0.323384 0.163516
0.170581 0.325368 0.16199
0.195407 0.328023 0.160586
0.223713 0.331106 0.159319
0.257847 0.335103 0.157992
0.291752 0.339223 0.156847
0.328344 0.344076 0.15584
0.373129 0.350408 0.154345
0.421714 0.357259 0.152575
0.470939 0.364263 0.150729
0.52015 0.372061 0.149691
0.567498 0.380575 0.150637
0.614435 0.389639 0.152468
0.663233 0.398993 0.154421
0.704829 0.40795 0.157229
0.741314 0.417014 0.161181
0.770764 0.426352 0.166781
0.801221 0.435645 0.171954
0.829053 0.444724 0.178134
0.848951 0.454108 0.188006
0.86656 0.463752 0.19942
0.883635 0.473106 0.210712
0.900664 0.48246 0.221897
0.912352 0.492164 0.236057
0.923033 0.502235 0.25095
0.934051 0.511482 0.264958
0.942687 0.520775 0.28011
0.0578012 0.354696 0.189639
0.0689097 0.355917 0.189273
0.0817121 0.357092 0.188632
0.0964828 0.358785 0.188098
0.113619 0.360174 0.186877
0.133272 0.361959 0.185458
0.153857 0.363561 0.183886
0.175586 0.36582 0.182635
0.203662 0.369009 0.18143
0.233738 0.372534 0.180255
0.26508 0.376684 0.179324
0.298772 0.380743 0.177905
0.338384 0.386053 0.176349
0.385809 0.393088 0.174746
0.432471 0.399435 0.172869
0.478676 0.405951 0.171557
0.525383 0.413214 0.171298
0.575113 0.422034 0.172763
0.624308 0.430198 0.173663
0.673808 0.43827 0.17438
0.709972 0.446845 0.177951
0.743572 0.455634 0.182132
0.775433 0.46421 0.186404
0.80708 0.472816 0.191089
0.83183 0.482124 0.199252
0.850309 0.490944 0.209384
0.868406 0.499687 0.219501
0.885771 0.508446 0.23003
0.901976 0.517571 0.241489
0.913069 0.526482 0.255116
0.924544 0.535149 0.268284
0.935866 0.544213 0.28188
0.943099 0.552651 0.297337
0.0628824 0.396292 0.211109
0.0725872 0.398337 0.211429
0.0858167 0.399573 0.210773
0.101839 0.401175 0.209857
0.119799 0.403265 0.209079
0.138506 0.404746 0.207599
0.160113 0.406485 0.206104
0.184237 0.408927 0.204761
0.212787 0.412695 0.203937
0.24126 0.4159 0.202548
0.271321 0.419333 0.200931
0.309758 0.424384 0.199512
0.352682 0.429694 0.197665
0.396445 0.43508 0.195773
0.439475 0.440436 0.193973
0.487434 0.447333 0.193683
0.536919 0.454582 0.19382
0.58703 0.462242 0.194049
0.636454 0.470283 0.194415
0.680964 0.478538 0.195819
0.713909 0.486564 0.199329
0.747845 0.494743 0.202899
0.781842 0.50341 0.20734
0.812268 0.511559 0.212726
0.833249 0.519753 0.221408
0.85243 0.527749 0.230396
0.872419 0.535744 0.239124
0.888853 0.543618 0.249363
0.903044 0.551553 0.260594
0.914916 0.560052 0.273411
0.927031 0.567941 0.28542
0.937194 0.575967 0.298848
0.943786 0.584466 0.315145
0.0623484 0.441764 0.234668
0.0757305 0.443259 0.234409
0.0906386 0.445212 0.234089
0.106935 0.446387 0.233219
0.124285 0.447501 0.23212
0.143099 0.448707 0.230808
0.168109 0.451453 0.229694
0.193484 0.454047 0.228138
0.218952 0.456825 0.226749
0.248203 0.460243 0.22536
0.28246 0.464424 0.223957
0.321584 0.468833 0.222034
0.361868 0.473579 0.220218
0.403677 0.479118 0.218967
0.446967 0.484565 0.217594
0.496452 0.491371 0.21706
0.546487 0.498665 0.2168
0.597025 0.505928 0.216342
0.641169 0.513024 0.217182
0.680797 0.520348 0.219196
0.717754 0.528176 0.222385
0.755611 0.535454 0.225177
0.788266 0.542718 0.229709
0.815244 0.550347 0.236255
0.835599 0.557244 0.243778
0.856641 0.563867 0.250751
0.877455 0.570596 0.257847
0.891676 0.578439 0.269108
0.904555 0.585931 0.280522
0.916869 0.593347 0.292119
0.929274 0.600946 0.30428
0.938262 0.608362 0.318379
0.94551 0.615732 0.333776
0.0700999 0.486473 0.258778
0.0822309 0.487495 0.25835
0.0950027 0.48838 0.257694
0.109636 0.489372 0.256764
0.12871 0.491646 0.256046
0.150317 0.493782 0.25481
0.173892 0.496117 0.253559
0.198199 0.498985 0.252445
0.224521 0.502159 0.251316
0.257816 0.505837 0.24979
0.293462 0.509468 0.247913
0.330541 0.513909 0.246571
0.3682 0.517983 0.244739
0.411658 0.52314 0.243351
0.459464 0.529427 0.242496
0.509468 0.535454 0.241077
0.559365 0.541543 0.239719
0.607401 0.547677 0.238987
0.648508 0.554681 0.240986
0.687968 0.56109 0.242985
0.727428 0.567559 0.244953
0.768399 0.574441 0.247227
0.794507 0.580941 0.252613
0.816556 0.587289 0.258762
0.838529 0.593301 0.264805
0.861402 0.599985 0.271443
0.880446 0.606531 0.279484
0.893065 0.613535 0.290608
0.90631 0.620401 0.301549
0.919158 0.626932 0.312551
0.931243 0.633433 0.324147
0.940169 0.639994 0.338262
0.949264 0.646677 0.352819
0.0683452 0.529763 0.283284
0.0800031 0.531243 0.28307
0.0944839 0.533135 0.283116
0.11133 0.535027 0.282536
0.132219 0.537224 0.281636
0.154223 0.539879 0.281117
0.176761 0.541741 0.279805
0.204425 0.544335 0.278401
0.234546 0.547311 0.27689
0.267582 0.551141 0.275624
0.301335 0.554116 0.273472
0.336172 0.557366 0.271595
0.374578 0.561456 0.270054
0.423239 0.566781 0.268437
0.47219 0.572122 0.266621
0.520729 0.577264 0.264454
0.569162 0.583001 0.26331
0.612726 0.588678 0.263478
0.652811 0.594659 0.264958
0.695109 0.600961 0.266361
0.734966 0.606607 0.267659
0.771191 0.612482 0.270176
0.794476 0.618402 0.275837
0.818967 0.624613 0.281727
0.843732 0.630335 0.28716
0.86482 0.636072 0.294072
0.8813 0.642374 0.303258
0.895125 0.648234 0.312978
0.909499 0.653864 0.322194
0.922148 0.659419 0.332769
0.933562 0.665431 0.34493
0.943542 0.670985 0.357977
0.953521 0.676143 0.370489
0.0662852 0.573373 0.310048
0.0814527 0.57525 0.310216
0.0987411 0.577142 0.309911
0.117266 0.5794 0.309834
0.136599 0.580774 0.309026
0.158511 0.582483 0.307774
0.182895 0.584482 0.306416
0.21181 0.587381 0.305318
0.241749 0.58996 0.303502
0.27245 0.592309 0.301228
0.303639 0.595438 0.299565
0.343496 0.599359 0.297581
0.388022 0.603738 0.295415
0.434623 0.608377 0.293309
0.4813 0.61326 0.29102
0.526802 0.617807 0.288975
0.570413 0.622843 0.288441
0.614984 0.628687 0.288853
0.659815 0.63415 0.289021
0.70547 0.639536 0.288838
0.74078 0.644862 0.291325
0.771023 0.650233 0.295247
0.797406 0.655283 0.299855
0.825177 0.66038 0.304173
0.849912 0.665797 0.309895
0.867582 0.670634 0.317311
0.88246 0.675502 0.325628
0.897459 0.680293 0.333806
0.913252 0.685344 0.341985
0.924285 0.690181 0.353063
0.93463 0.694804 0.364538
0.945052 0.699733 0.376532
0.954299 0.703899 0.387869
0.0770428 0.61593 0.337041
0.0910201 0.617639 0.337591
0.105455 0.618799 0.337301
0.120989 0.619989 0.336858
0.139101 0.621454 0.336294
0.163287 0.623392 0.334813
0.188846 0.625528 0.333288
0.216266 0.627802 0.331563
0.245258 0.630411 0.329793
0.276967 0.632822 0.327459
0.312261 0.63592 0.325154
0.355779 0.640055 0.322972
0.400046 0.644175 0.320546
0.443824 0.648066 0.317876
0.488228 0.652201 0.31548
0.53344 0.657252 0.314748
0.578882 0.662135 0.314199
0.626261 0.667216 0.313252
0.674067 0.672328 0.312169
0.719341 0.677272 0.311986
0.746197 0.681453 0.315877
0.774075 0.685573 0.31957
0.803479 0.690074 0.3234
0.832532 0.69424 0.326711
0.852934 0.698436 0.332586
0.868498 0.702556 0.339849
0.884535 0.707027 0.347234
0.900404 0.711116 0.354421
0.915236 0.715007 0.362188
0.925719 0.719478 0.373388
0.936477 0.723507 0.38378
0.946853 0.727398 0.394141
0.954635 0.73109 0.405722
0.0829175 0.653849 0.363775
0.0910201 0.654963 0.364263
0.10042 0.656275 0.364782
0.119036 0.658167 0.364248
0.14258 0.659983 0.362661
0.167269 0.661723 0.360861
0.192706 0.664073 0.359518
0.219013 0.666026 0.357519
0.248325 0.668086 0.3552
0.28484 0.670893 0.352804
0.324086 0.674098 0.350484
0.364324 0.677119 0.348058
0.404929 0.680293 0.345647
0.446723 0.684031 0.343893
0.491707 0.687739 0.342016
0.537713 0.691829 0.340414
0.584573 0.69604 0.338811
0.633295 0.700771 0.337392
0.67483 0.70486 0.337179
0.711009 0.708919 0.338323
0.742824 0.713207 0.341115
0.776043 0.717296 0.343191
0.807752 0.721431 0.345678
0.835035 0.725673 0.349523
0.85304 0.729397 0.355627
0.870268 0.732998 0.36144
0.887968 0.736584 0.366812
0.903044 0.740322 0.374502
0.916045 0.743542 0.382879
0.927001 0.746807 0.392401
0.938659 0.750164 0.401755
0.948272 0.753323 0.412192
0.954742 0.756069 0.423789
0.0782177 0.688945 0.39089
0.0921492 0.690562 0.390875
0.108415 0.692042 0.390326
0.129381 0.693706 0.38912
0.151095 0.695552 0.3879
0.172641 0.69723 0.386374
0.194751 0.698741 0.384466
0.223011 0.700694 0.382559
0.257038 0.703212 0.380972
0.29308 0.705303 0.378393
0.329 0.707668 0.376089
0.365469 0.710491 0.374182
0.40528 0.713405 0.371847
0.448966 0.716625 0.369619
0.496559 0.720684 0.367926
0.544488 0.724498 0.365423
0.592172 0.728466 0.363226
0.638804 0.732341 0.361318
0.676493 0.736553 0.362417
0.712856 0.740444 0.363378
0.750057 0.744411 0.364187
0.7897 0.748775 0.36492
0.818097 0.75259 0.367758
0.837873 0.756024 0.372274
0.855695 0.758923 0.376974
0.874739 0.762112 0.38146
0.893004 0.764889 0.385992
0.905211 0.767208 0.394247
0.917052 0.769741 0.402884
0.928847 0.77229 0.411399
0.941009 0.774777 0.419608
0.949172 0.776959 0.430045
0.95581 0.779385 0.441642
0.0873121 0.720317 0.414878
0.10248 0.721538 0.414343
0.118166 0.723003 0.414084
0.133639 0.724163 0.413382
0.150103 0.72517 0.412207
0.169512 0.726802 0.411566
0.196399 0.728695 0.410178
0.227375 0.730816 0.40827
0.259251 0.733013 0.406195
0.292058 0.735546 0.404242
0.324727 0.738064 0.402029
0.360876 0.740887 0.399741
0.406775 0.744533 0.397742
0.454017 0.747875 0.394995
0.5019 0.751095 0.391836
0.550652 0.754513 0.388769
0.59559 0.758328 0.387274
0.637079 0.761791 0.386267
0.675441 0.764996 0.386084
0.715816 0.76878 0.38584
0.755444 0.772274 0.385473
0.79144 0.775586 0.38587
0.813367 0.778271 0.389334
0.834058 0.78088 0.393362
0.855543 0.783307 0.396796
0.87602 0.785779 0.4009
0.89305 0.788312 0.40676
0.905425 0.790784 0.414557
0.918379 0.792996 0.421683
0.930739 0.795346 0.429206
0.942229 0.79794 0.437751
0.950469 0.799741 0.447898
0.958907 0.801602 0.45774
0.097322 0.748623 0.438346
0.106004 0.74963 0.438743
0.116701 0.750698 0.43888
0.130388 0.752163 0.439124
0.149126 0.753399 0.437964
0.172778 0.755154 0.436744
0.199863 0.757183 0.435264
0.228595 0.759441 0.433646
0.256641 0.761471 0.431647
0.28513 0.763424 0.429328
0.324346 0.766369 0.427161
0.366995 0.769177 0.424384
0.412421 0.772076 0.421332
0.457893 0.775143 0.418204
0.504417 0.778256 0.415045
0.550149 0.781033 0.411795
0.589044 0.784054 0.410971
0.630838 0.787228 0.409781
0.674739 0.790356 0.408011
0.719142 0.793729 0.405783
0.755489 0.796735 0.405783
0.785061 0.799649 0.407858
0.809216 0.801999 0.410727
0.835126 0.804334 0.413092
0.861051 0.807065 0.416022
0.879286 0.809415 0.42089
0.894072 0.811734 0.426947
0.907652 0.813977 0.433265
0.92224 0.816129 0.439506
0.933822 0.817945 0.447013
0.943847 0.819593 0.455299
0.953155 0.821225 0.464378
0.962493 0.8224 0.472801
0.0877394 0.775006 0.464485
0.094789 0.775876 0.46537
0.111055 0.776761 0.464637
0.131151 0.777981 0.463615
0.154101 0.779538 0.46244
0.177325 0.781094 0.461097
0.199893 0.782513 0.459464
0.222721 0.783795 0.457618
0.251743 0.785794 0.45594
0.286015 0.787823 0.453361
0.325994 0.790127 0.450523
0.367407 0.792584 0.447654
0.409735 0.795193 0.444678
0.451881 0.797665 0.441474
0.49546 0.800534 0.438499
0.540002 0.803952 0.436271
0.584909 0.807294 0.433738
0.633127 0.810666 0.430747
0.680964 0.814176 0.427741
0.72726 0.817884 0.425772
0.755032 0.820249 0.427314
0.781796 0.822522 0.429191
0.810987 0.824994 0.430976
0.840223 0.827268 0.432227
0.863462 0.829404 0.435157
0.878752 0.831296 0.440299
0.893904 0.833371 0.44593
0.909133 0.834989 0.451026
0.924315 0.83653 0.45626
0.934569 0.837888 0.464164
0.944686 0.838972 0.471534
0.955062 0.839902 0.478676
0.962753 0.839979 0.48661
0.0962387 0.796262 0.485969
0.109468 0.797513 0.486046
0.126146 0.798825 0.485695
0.142931 0.800183 0.485222
0.158755 0.801266 0.48426
0.17464 0.802365 0.483436
0.19234 0.803769 0.482856
0.213596 0.805158 0.481483
0.250065 0.807233 0.479026
0.286931 0.80943 0.476371
0.323964 0.811872 0.473777
0.361318 0.814176 0.470863
0.401251 0.81651 0.467597
0.44358 0.819409 0.464775
0.489189 0.822583 0.461601
0.536751 0.825849 0.458198
0.585397 0.829129 0.454505
0.636942 0.83267 0.450629
0.67805 0.835554 0.448631
0.711925 0.838041 0.448432
0.74345 0.840558 0.449317
0.776989 0.843 0.449287
0.810956 0.845411 0.449088
0.838453 0.847654 0.450874
0.858244 0.849531 0.454673
0.875257 0.851118 0.4589
0.893706 0.852705 0.462898
0.910124 0.854261 0.467918
0.924163 0.855512 0.47332
0.93489 0.856428 0.47982
0.946288 0.857267 0.485832
0.956725 0.85774 0.492103
0.962402 0.856886 0.499687
0.0977493 0.81738 0.508934
0.107866 0.818647 0.509743
0.118166 0.819562 0.509789
0.128511 0.820478 0.509743
0.140475 0.821622 0.509758
0.157153 0.822782 0.509041
0.184771 0.824537 0.507286
0.216846 0.826444 0.504952
0.249668 0.82855 0.502754
0.282155 0.830365 0.499702
0.315206 0.832135 0.496742
0.349905 0.834363 0.494285
0.391775 0.836896 0.490791
0.436164 0.839719 0.48719
0.48365 0.842817 0.483497
0.53228 0.845899 0.479301
0.580041 0.848951 0.475319
0.625986 0.851972 0.471931
0.663142 0.854719 0.471153
0.700526 0.857328 0.470069
0.740444 0.860105 0.468482
0.782513 0.863142 0.466773
0.816297 0.865583 0.466941
