public/luts/film/leneu-neg.cube
TITLE "Generated by Resolve"
LUT_3D_SIZE 9
0.00643931 0.00851453 0.00781262
0.0692149 0.0158083 0.00392157
0.15906 0.026215 0.00277714
0.301579 0.0445411 0.00215152
0.511009 0.0782788 0.00117494
0.707805 0.118013 0.00230411
0.828809 0.157122 0.0251926
0.897551 0.19762 0.0739757
0.933639 0.242481 0.142687
0.0142824 0.0865797 0.0434882
0.0773327 0.0907607 0.0374914
0.157031 0.101411 0.035584
0.287953 0.120134 0.0328679
0.483314 0.147814 0.0305028
0.684993 0.181811 0.0351263
0.820249 0.219379 0.0594644
0.893507 0.261143 0.106966
0.938598 0.308003 0.172808
0.027863 0.178058 0.0956283
0.087953 0.183688 0.0922255
0.170871 0.191775 0.0893416
0.298604 0.210361 0.0870375
0.486244 0.238117 0.0840162
0.683497 0.273075 0.0875563
0.817609 0.313787 0.110918
0.893355 0.357504 0.156008
0.936629 0.402274 0.219867
0.0496986 0.312367 0.168521
0.107332 0.318578 0.165469
0.195407 0.328023 0.160586
0.328344 0.344076 0.15584
0.52015 0.372061 0.149691
0.704829 0.40795 0.157229
0.829053 0.444724 0.178134
0.900664 0.48246 0.221897
0.942687 0.520775 0.28011
0.0700999 0.486473 0.258778
0.12871 0.491646 0.256046
0.224521 0.502159 0.251316
0.3682 0.517983 0.244739
0.559365 0.541543 0.239719
0.727428 0.567559 0.244953
0.838529 0.593301 0.264805
0.90631 0.620401 0.301549
0.949264 0.646677 0.352819
0.0829175 0.653849 0.363775
0.14258 0.659983 0.362661
0.248325 0.668086 0.3552
0.404929 0.680293 0.345647
0.584573 0.69604 0.338811
0.742824 0.713207 0.341115
0.85304 0.729397 0.355627
0.916045 0.743542 0.382879
0.954742 0.756069 0.423789
0.0877394 0.775006 0.464485
0.154101 0.779538 0.46244
0.251743 0.785794 0.45594
0.409735 0.795193 0.444678
0.584909 0.807294 0.433738
0.755032 0.820249 0.427314
0.863462 0.829404 0.435157
0.924315 0.83653 0.45626
0.962753 0.839979 0.48661
0.0882277 0.852934 0.550332
0.13994 0.857389 0.549966
0.212375 0.862806 0.547036
0.37142 0.872969 0.532723
0.547906 0.884199 0.516899
0.732403 0.895125 0.502358
0.855024 0.902037 0.501793
0.923262 0.90457 0.512154
0.964843 0.903059 0.529702
0.0567636 0.909499 0.61294
0.0909743 0.912032 0.610941
0.134676 0.914565 0.606851
0.259739 0.922194 0.593133
0.408042 0.930983 0.575616
0.624048 0.943175 0.551064
0.793027 0.951446 0.534676
0.896757 0.954543 0.530495
0.956725 0.952621 0.538323
0.0204166 0.0193484 0.0481727
0.0844282 0.025391 0.0404822
0.168536 0.0358282 0.0357519
0.306722 0.0582132 0.0354467
0.506966 0.0909895 0.0345159
0.702953 0.129961 0.0428931
0.827466 0.167041 0.0714122
0.896284 0.207172 0.121019
0.935653 0.252552 0.19202
0.0290684 0.102861 0.102083
0.0928511 0.106996 0.0936751
0.171725 0.116716 0.0880446
0.30454 0.134737 0.085771
0.496452 0.161746 0.0809949
0.6916 0.195453 0.0859388
0.824903 0.231556 0.112139
0.894957 0.274388 0.162524
0.940078 0.319997 0.228962
0.0464485 0.200473 0.163485
0.107836 0.203708 0.157427
0.188998 0.213077 0.150576
0.322179 0.229984 0.145861
0.509255 0.258061 0.141726
0.696422 0.292775 0.148913
0.822721 0.332601 0.176303
0.89546 0.374258 0.222583
0.938354 0.417121 0.285206
0.0694285 0.342489 0.245823
0.128725 0.348333 0.24181
0.219379 0.356832 0.236851
0.355947 0.373739 0.231418
0.544274 0.40032 0.225895
0.719936 0.433387 0.233539
0.837995 0.466758 0.255924
0.904585 0.501198 0.296818
0.945846 0.537148 0.351293
0.0882582 0.51751 0.354009
0.152285 0.523857 0.350881
0.251118 0.532128 0.34435
0.396902 0.546532 0.336187
0.586191 0.567422 0.329244
0.745251 0.590738 0.332845
0.847639 0.614252 0.351766
0.911467 0.638178 0.383597
0.953628 0.660517 0.427237
0.10222 0.676005 0.468177
0.171069 0.682094 0.465492
0.276051 0.688899 0.45713
0.430655 0.699886 0.444831
0.608927 0.714824 0.43447
0.755383 0.729656 0.433341
0.859434 0.743267 0.443595
0.920241 0.755306 0.465812
0.957137 0.766506 0.499107
0.107439 0.78584 0.569726
0.17908 0.790845 0.565591
0.277424 0.796887 0.556863
0.433204 0.806607 0.542748
0.605905 0.81828 0.529274
0.764096 0.829435 0.519921
0.869261 0.837842 0.521904
0.928496 0.843565 0.53695
0.965316 0.845869 0.559426
0.0963455 0.859464 0.652674
0.152895 0.864195 0.650782
0.232258 0.869444 0.6439
0.391699 0.879271 0.627375
0.562158 0.88922 0.609216
0.738964 0.899596 0.591424
0.861112 0.905867 0.584772
0.927352 0.908125 0.588022
0.966857 0.905806 0.597253
0.0610208 0.911437 0.708858
0.0995193 0.913985 0.704585
0.138476 0.916442 0.698787
0.265003 0.92398 0.682261
0.416815 0.932601 0.661738
0.624735 0.944213 0.635187
0.798215 0.952941 0.614252
0.898924 0.956573 0.605722
0.95845 0.953811 0.605386
0.0403754 0.0334173 0.102098
0.103395 0.039704 0.0923476
0.18587 0.0529641 0.0887312
0.320165 0.0754559 0.0881208
0.514153 0.107897 0.0865339
0.704555 0.143862 0.0987411
0.827161 0.180743 0.129778
0.8972 0.219867 0.183246
0.938552 0.264363 0.252964
0.0533761 0.121859 0.167819
0.114504 0.126589 0.159121
0.194888 0.136599 0.152972
0.329442 0.153048 0.147143
0.519326 0.17995 0.143709
0.705043 0.213214 0.152316
0.831861 0.249638 0.181888
0.897932 0.291112 0.234974
0.941497 0.335119 0.299336
0.0737926 0.22562 0.246647
0.133303 0.229923 0.237644
0.218738 0.24007 0.230976
0.354864 0.257206 0.225223
0.540154 0.284276 0.222293
0.71545 0.317968 0.231296
0.831846 0.355474 0.260243
0.900496 0.393881 0.304082
0.942946 0.436866 0.362127
0.0964218 0.378347 0.351507
0.160113 0.383124 0.344701
0.253315 0.392187 0.336309
0.394522 0.408011 0.328649
0.576074 0.43241 0.322698
0.740215 0.462089 0.329427
0.847852 0.491859 0.350713
0.90985 0.523507 0.385748
0.94934 0.556329 0.432502
0.115679 0.552316 0.473228
0.185351 0.558175 0.467399
0.289754 0.56585 0.456596
0.435355 0.578546 0.4448
0.616526 0.596948 0.433738
0.763943 0.615793 0.433265
0.858152 0.636149 0.447425
0.917662 0.656718 0.472969
0.957992 0.676387 0.509178
0.129686 0.699199 0.585107
0.204807 0.704799 0.578897
0.312001 0.71136 0.567758
0.465064 0.720851 0.552697
0.637659 0.734096 0.538277
0.774029 0.746487 0.533089
0.86775 0.757702 0.537835
0.925399 0.768307 0.553628
0.961563 0.777493 0.579263
0.134371 0.797864 0.67982
0.207294 0.803052 0.673625
0.310018 0.809354 0.662272
0.461738 0.818784 0.645533
0.632517 0.829633 0.628
0.777295 0.839124 0.61619
0.874815 0.846159 0.613809
0.931975 0.851072 0.621057
0.967056 0.852201 0.633875
0.108583 0.866453 0.755337
0.171221 0.871046 0.749813
0.262394 0.876616 0.73901
0.416556 0.885328 0.719738
0.57966 0.894499 0.699229
0.74548 0.90399 0.680354
0.867582 0.910521 0.668605
0.930388 0.911482 0.663874
0.96875 0.908095 0.665415
0.0671244 0.912642 0.798291
0.108858 0.915541 0.793515
0.153506 0.918761 0.786908
0.270344 0.925551 0.768811
0.428428 0.934569 0.745525
0.626398 0.94583 0.717159
0.800153 0.954955 0.692485
0.902358 0.958556 0.679362
0.960601 0.955383 0.672374
0.0667735 0.055436 0.168414
0.126162 0.0619974 0.158282
0.208713 0.0766308 0.154559
0.343069 0.0994583 0.153384
0.534737 0.128878 0.155276
0.714672 0.162921 0.169696
0.832456 0.197894 0.204501
0.899474 0.236759 0.258701
0.943557 0.28014 0.324208
0.0867933 0.146517 0.253727
0.144457 0.15079 0.242283
0.229618 0.159792 0.234043
0.364355 0.176928 0.226978
0.550866 0.204562 0.2271
0.72575 0.236164 0.238392
0.839033 0.271733 0.270588
0.903258 0.311055 0.320653
0.942962 0.35491 0.379126
0.110567 0.259998 0.353811
0.168917 0.264347 0.344167
0.259525 0.272923 0.334249
0.399969 0.290333 0.325353
0.579492 0.315877 0.321004
0.740124 0.347219 0.330648
0.844907 0.382208 0.357122
0.908324 0.418708 0.39501
0.948455 0.458152 0.446647
0.13608 0.418082 0.474372
0.201114 0.423011 0.465248
0.299825 0.431586 0.453483
0.44509 0.445945 0.441398
0.61529 0.467735 0.433585
0.763073 0.493034 0.436072
0.857984 0.519646 0.452903
0.916243 0.547723 0.481437
0.953109 0.576806 0.519203
0.156619 0.586252 0.595666
0.229679 0.59205 0.587015
0.337957 0.599802 0.573343
0.482567 0.611063 0.557717
0.649149 0.626856 0.545083
0.785092 0.642985 0.540047
0.871214 0.659281 0.547921
0.925673 0.675959 0.56466
0.962722 0.692546 0.59115
0.171939 0.72134 0.699779
0.24712 0.726513 0.690379
0.359152 0.733272 0.676234
0.503639 0.741787 0.658335
0.66833 0.753384 0.640543
0.795651 0.763714 0.631708
0.878569 0.772839 0.63209
0.932174 0.780819 0.640574
0.966262 0.787671 0.656168
0.169314 0.810025 0.7794
0.238743 0.814969 0.772015
0.350134 0.822003 0.758114
0.498177 0.831296 0.739605
0.665324 0.841825 0.718822
0.792432 0.849561 0.704738
0.88043 0.854978 0.698009
0.936095 0.858289 0.698314
0.969421 0.857557 0.702464
0.132662 0.872557 0.840818
0.194919 0.877134 0.833707
0.297429 0.883482 0.819821
0.440345 0.891554 0.799741
0.601862 0.900328 0.777188
0.755154 0.908598 0.756268
0.872007 0.914229 0.740398
0.931716 0.914824 0.732128
0.970001 0.910506 0.727367
0.0814527 0.914717 0.873472
0.113878 0.917357 0.869184
0.16788 0.92108 0.860639
0.277684 0.927474 0.842771
0.443 0.936889 0.817472
0.62797 0.947372 0.789487
0.80206 0.956298 0.762753
0.904631 0.959808 0.746258
0.961486 0.956588 0.73312
0.101854 0.0850385 0.258656
0.15938 0.0931258 0.247059
0.242283 0.105241 0.241932
0.380591 0.125856 0.240391
0.565194 0.154131 0.241474
0.73286 0.185885 0.258305
0.840833 0.220386 0.29424
0.903563 0.25835 0.344778
0.947509 0.301183 0.402823
0.126604 0.176883 0.360693
0.183612 0.179965 0.348424
0.272023 0.188602 0.336919
0.410163 0.20705 0.329
0.589685 0.233356 0.327077
0.74786 0.264073 0.338231
0.847944 0.29958 0.369177
0.909255 0.336416 0.412467
0.946578 0.378592 0.464836
0.153826 0.29807 0.475013
0.213611 0.302968 0.46392
0.309392 0.313237 0.451987
0.454505 0.328252 0.438437
0.625696 0.352956 0.431052
0.76788 0.382818 0.439338
0.859525 0.413123 0.458991
0.915908 0.447028 0.491478
0.954009 0.481941 0.531701
0.185733 0.459892 0.598825
0.250065 0.465232 0.588067
0.3561 0.473793 0.573816
0.501579 0.487572 0.557855
0.659831 0.50605 0.546532
0.786984 0.526802 0.54493
0.870222 0.549813 0.555077
0.923842 0.574319 0.575479
0.957656 0.59794 0.601984
0.209354 0.620172 0.708888
0.280735 0.625391 0.698604
0.393103 0.632593 0.682658
0.53611 0.642634 0.664118
0.685298 0.655436 0.648417
0.806821 0.669017 0.639628
0.88394 0.682033 0.641398
0.933715 0.695399 0.65156
0.966995 0.709712 0.668452
0.223377 0.74258 0.793515
0.295964 0.747143 0.783978
0.411185 0.752895 0.76762
0.550286 0.760998 0.749157
0.702129 0.771481 0.731075
0.817502 0.779889 0.718578
0.890089 0.787717 0.714717
0.938384 0.793912 0.717525
0.97113 0.798184 0.723842
0.209491 0.822339 0.858351
0.280354 0.827955 0.85008
0.399512 0.83534 0.834211
0.54258 0.844114 0.814679
0.697795 0.853361 0.79379
0.807965 0.858885 0.777691
0.888014 0.862959 0.76849
0.940673 0.864637 0.764233
0.972549 0.863355 0.762081
0.160739 0.877974 0.905455
0.22179 0.882261 0.897414
0.33431 0.889128 0.881682
0.467857 0.89659 0.862562
0.629191 0.905699 0.839338
0.769253 0.913008 0.818372
0.871 0.917006 0.802274
0.932937 0.917327 0.790799
0.97142 0.913603 0.781888
0.0928206 0.916472 0.932403
0.110628 0.918547 0.93077
0.184588 0.923095 0.918868
0.292714 0.929213 0.901305
0.459968 0.938994 0.876173
0.631586 0.948714 0.849073
0.804242 0.957992 0.821408
0.904631 0.960784 0.801373
0.960784 0.957778 0.785809
0.144808 0.120577 0.37438
0.201907 0.126879 0.360906
0.291569 0.139208 0.352529
0.432456 0.158267 0.346716
0.606622 0.184756 0.347829
0.758465 0.213107 0.360311
0.85095 0.247745 0.394583
0.911116 0.283894 0.438575
0.949218 0.325567 0.488777
0.174166 0.213626 0.483543
0.233143 0.21886 0.470314
0.327977 0.228351 0.456001
0.470893 0.245533 0.444556
0.637873 0.269245 0.439963
0.773053 0.299397 0.44979
0.861372 0.3308 0.474784
0.916152 0.366659 0.509285
0.951171 0.404852 0.549874
0.209506 0.343496 0.598749
0.272023 0.348455 0.586542
0.373114 0.357702 0.571069
0.518669 0.37293 0.555932
0.674006 0.395499 0.546471
0.797162 0.419867 0.548226
0.87538 0.446433 0.561242
0.924117 0.47686 0.584573
0.958999 0.506798 0.613199
0.244709 0.505119 0.710369
0.311009 0.51043 0.700481
0.420371 0.517891 0.683391
0.565103 0.529976 0.665522
0.704753 0.544442 0.651026
0.811276 0.561654 0.646021
0.883787 0.580804 0.649546
0.931716 0.600259 0.660426
0.962631 0.620783 0.678767
0.270207 0.653513 0.800565
0.342565 0.658686 0.790173
0.45507 0.665446 0.77258
0.593454 0.673442 0.752819
0.72256 0.68307 0.736873
0.826261 0.694026 0.726986
0.895018 0.704555 0.724346
0.940108 0.715343 0.728054
0.96997 0.725948 0.735958
0.280705 0.761654 0.866499
0.357076 0.766262 0.855955
0.46981 0.772335 0.839536
0.601633 0.780484 0.821744
0.73608 0.789044 0.803006
0.838727 0.796216 0.789471
0.901854 0.801129 0.782483
0.944564 0.805371 0.780163
0.975219 0.80737 0.780102
0.26041 0.834424 0.918791
0.338582 0.840101 0.90869
0.456352 0.847837 0.891676
0.587549 0.855268 0.872374
0.723033 0.862028 0.85211
0.826978 0.866972 0.835554
0.896666 0.869245 0.824979
0.944762 0.870329 0.817472
0.975311 0.867536 0.810544
0.203174 0.883421 0.952682
0.265156 0.887541 0.944595
0.376165 0.893797 0.929046
0.503075 0.900954 0.910872
0.662242 0.910231 0.887297
0.78294 0.915694 0.868391
0.873686 0.918975 0.852537
0.934722 0.91957 0.839826
0.973907 0.916045 0.828656
0.108553 0.917449 0.978271
0.116091 0.919066 0.97641
0.212528 0.925032 0.961898
0.319097 0.931472 0.946242
0.476707 0.940505 0.922759
0.646342 0.950423 0.896757
0.806439 0.958816 0.870665
0.902632 0.96083 0.850309
0.962783 0.958541 0.832929
0.198871 0.160571 0.501671
0.260319 0.16788 0.48867
0.354559 0.179675 0.478614
0.494957 0.197574 0.468482
0.654292 0.221302 0.466087
0.784054 0.250416 0.476417
0.864469 0.280797 0.501793
0.917983 0.316884 0.536645
0.952239 0.353643 0.574304
0.23772 0.259968 0.608377
0.302937 0.2654 0.595285
0.404196 0.27425 0.579843
0.543679 0.29015 0.565042
0.687938 0.313268 0.557855
0.80119 0.338033 0.561563
0.875441 0.367803 0.578058
0.924285 0.400717 0.602182
0.957076 0.434409 0.630426
0.278599 0.39382 0.710918
0.348791 0.400534 0.698741
0.453071 0.409598 0.681529
0.587594 0.422507 0.66389
0.720836 0.440299 0.652888
0.822644 0.460395 0.650111
0.887373 0.484092 0.657115
0.932097 0.508995 0.670512
0.964126 0.535454 0.687877
0.314443 0.548852 0.799237
0.391058 0.555291 0.787869
0.497063 0.562448 0.772351
0.626413 0.571786 0.753292
0.746975 0.583612 0.737804
0.836225 0.596628 0.730434
0.897368 0.61149 0.729625
0.939529 0.626963 0.735088
0.968292 0.644282 0.746059
0.340597 0.684733 0.869841
0.420661 0.68983 0.857542
0.526589 0.694942 0.840238
0.650889 0.701885 0.821347
0.761563 0.710231 0.806394
0.846616 0.718547 0.795956
0.904891 0.726757 0.792035
0.946227 0.734478 0.792004
0.973724 0.741604 0.793469
0.349874 0.780331 0.91957
0.430762 0.785473 0.909026
0.536767 0.791485 0.894102
0.660807 0.799374 0.876432
0.770169 0.806012 0.860334
0.854322 0.810651 0.847425
0.910323 0.813626 0.838911
0.950576 0.815625 0.832319
0.979263 0.815381 0.828321
0.325338 0.846036 0.959594
0.406973 0.851743 0.949187
0.516228 0.858228 0.934096
0.631983 0.86363 0.916243
0.74873 0.86923 0.898054
0.845472 0.873518 0.882734
0.906996 0.874876 0.872633
0.948989 0.875105 0.863218
0.977798 0.870893 0.854307
0.257099 0.888609 0.983795
0.325856 0.892912 0.976257
0.424659 0.898878 0.96492
0.545464 0.906157 0.949172
0.685863 0.914153 0.928176
0.799435 0.918975 0.90956
0.878904 0.921004 0.89543
0.937438 0.921126 0.882155
0.976181 0.917128 0.869368
0.138109 0.919722 0.998749
0.178561 0.922576 0.99617
0.260594 0.927352 0.988602
0.361227 0.933303 0.977859
0.502556 0.941894 0.960678
0.676432 0.95256 0.934615
0.804242 0.958572 0.912184
0.901015 0.96083 0.892317
0.962463 0.95819 0.874952
0.272602 0.210559 0.63093
0.338918 0.216938 0.619104
0.436347 0.227558 0.606241
0.569635 0.245014 0.59295
0.704372 0.266773 0.586267
0.808988 0.29218 0.590692
0.878233 0.32134 0.606409
0.925155 0.352407 0.628214
0.955535 0.387655 0.654932
0.318608 0.313542 0.717968
0.385397 0.319066 0.706447
0.489296 0.329 0.690349
0.617914 0.34345 0.673625
0.739574 0.360937 0.663508
0.829587 0.383337 0.66302
0.889708 0.409384 0.671366
0.932692 0.436561 0.68571
0.963378 0.466484 0.703349
0.363424 0.448234 0.797055
0.43537 0.45481 0.785977
0.540002 0.462867 0.769787
0.657679 0.47332 0.753674
0.764569 0.487724 0.741512
0.844282 0.504509 0.736171
0.899336 0.522606 0.737346
0.940169 0.542123 0.743008
0.967575 0.563943 0.754391
0.401282 0.592233 0.865324
0.478721 0.598321 0.853956
0.57882 0.604471 0.838514
0.687633 0.611505 0.821637
0.786679 0.620966 0.807736
0.860441 0.630961 0.79971
0.910277 0.641855 0.79646
0.947417 0.653864 0.798123
0.974151 0.667475 0.802197
0.429831 0.713024 0.918868
0.507088 0.717769 0.907469
0.603082 0.723217 0.892683
0.71046 0.729809 0.876631
0.801587 0.736645 0.862913
0.868132 0.742382 0.854704
0.91635 0.747509 0.85008
0.952728 0.752026 0.845289
0.976471 0.754772 0.841947
0.434546 0.798138 0.959457
0.514412 0.803464 0.949172
0.611749 0.809934 0.935988
0.718639 0.816266 0.920211
0.799985 0.819272 0.906706
0.867948 0.821668 0.895048
0.918364 0.823163 0.885451
0.95494 0.823545 0.878569
0.981491 0.821576 0.872053
0.403586 0.854673 0.986145
0.482963 0.859754 0.976013
0.576944 0.864942 0.965209
0.680598 0.870054 0.950332
0.776852 0.874617 0.935912
0.860136 0.878447 0.922438
0.914 0.879911 0.913024
0.951064 0.877409 0.902266
0.97995 0.872892 0.892882
0.323934 0.893217 0.997528
0.395499 0.897856 0.992798
0.484581 0.903227 0.989654
0.596613 0.909911 0.975647
0.712413 0.916121 0.960662
0.817395 0.920684 0.944579
0.888487 0.922057 0.931304
0.9402 0.921675 0.919768
0.978836 0.917205 0.9066
0.185428 0.920073 0.999985
0.244358 0.92398 0.999344
0.310384 0.928313 0.998901
0.412589 0.934936 0.994095
0.542168 0.943175 0.988037
0.694331 0.950927 0.967803
0.809827 0.956466 0.949004
0.903212 0.959304 0.930358
0.962112 0.956603 0.913939
0.366598 0.269657 0.739361
0.437385 0.27776 0.728161
0.533928 0.288014 0.715053
0.648173 0.301274 0.70045
0.754925 0.320058 0.691707
0.836042 0.341161 0.691386
0.892653 0.365072 0.698054
0.933135 0.393713 0.710353
0.960723 0.423026 0.725292
0.419364 0.375189 0.802152
0.491035 0.381186 0.791196
0.58436 0.389044 0.777066
0.690532 0.399924 0.762188
0.785412 0.414557 0.751644
0.854749 0.432349 0.747723
0.90396 0.452155 0.750591
0.940932 0.474952 0.756725
0.96939 0.500389 0.766934
0.469551 0.502632 0.860945
0.538354 0.509148 0.851102
0.629694 0.515587 0.836927
0.724224 0.523644 0.822843
0.805737 0.534585 0.812161
0.86746 0.546853 0.806989
0.912749 0.560433 0.805249
0.94786 0.576638 0.806882
0.971496 0.594644 0.812161
0.509483 0.633921 0.912673
0.576959 0.638621 0.90341
0.661875 0.643961 0.889799
0.747631 0.649958 0.877073
0.822965 0.65713 0.866377
0.880415 0.664103 0.859113
0.92195 0.671107 0.85539
0.954787 0.679728 0.853315
0.979263 0.688334 0.852384
0.533989 0.739269 0.95462
0.602518 0.744533 0.945632
0.685054 0.74992 0.934066
0.76759 0.75584 0.922545
0.836439 0.759075 0.911543
0.8878 0.761181 0.90251
0.926833 0.762997 0.895689
0.958862 0.765423 0.889723
0.980407 0.765682 0.884398
0.535637 0.813367 0.98291
0.606195 0.818051 0.975952
0.682185 0.82237 0.965133
0.763043 0.825833 0.953338
0.830808 0.828016 0.941894
0.883925 0.829129 0.931975
0.926055 0.82974 0.924147
0.95874 0.828565 0.91725
0.981552 0.824277 0.909972
0.498924 0.862196 0.994659
0.566598 0.866392 0.991028
0.64358 0.87042 0.98468
0.734661 0.875013 0.976043
0.808789 0.878294 0.965896
0.870741 0.880247 0.955749
0.918456 0.88043 0.946273
0.954376 0.877882 0.938003
0.982284 0.873228 0.929229
0.416388 0.897169 0.998932
0.481163 0.90164 0.998108
0.561074 0.906508 0.996353
0.658244 0.911269 0.992004
0.747646 0.91548 0.984344
0.832822 0.919249 0.975097
0.89662 0.920058 0.964248
0.942916 0.918822 0.95349
0.978561 0.914046 0.941848
0.263172 0.92076 0.999786
0.316564 0.924407 0.999695
0.383078 0.928862 0.999466
0.481331 0.935073 0.998886
0.590982 0.941512 0.996292
0.711757 0.947906 0.991852
0.820554 0.953201 0.980652
0.90425 0.955718 0.967178
0.962264 0.95375 0.952255
