public/luts/film/leneu-neg.cube
TITLE "Generated by Resolve"
LUT_3D_SIZE 5
0.00643931 0.00851453 0.00781262
0.15906 0.026215 0.00277714
0.511009 0.0782788 0.00117494
0.828809 0.157122 0.0251926
0.933639 0.242481 0.142687
0.027863 0.178058 0.0956283
0.170871 0.191775 0.0893416
0.486244 0.238117 0.0840162
0.817609 0.313787 0.110918
0.936629 0.402274 0.219867
0.0700999 0.486473 0.258778
0.224521 0.502159 0.251316
0.559365 0.541543 0.239719
0.838529 0.593301 0.264805
0.949264 0.646677 0.352819
0.0877394 0.775006 0.464485
0.251743 0.785794 0.45594
0.584909 0.807294 0.433738
0.863462 0.829404 0.435157
0.962753 0.839979 0.48661
0.0567636 0.909499 0.61294
0.134676 0.914565 0.606851
0.408042 0.930983 0.575616
0.793027 0.951446 0.534676
0.956725 0.952621 0.538323
0.0403754 0.0334173 0.102098
0.18587 0.0529641 0.0887312
0.514153 0.107897 0.0865339
0.827161 0.180743 0.129778
0.938552 0.264363 0.252964
0.0737926 0.22562 0.246647
0.218738 0.24007 0.230976
0.540154 0.284276 0.222293
0.831846 0.355474 0.260243
0.942946 0.436866 0.362127
0.115679 0.552316 0.473228
0.289754 0.56585 0.456596
0.616526 0.596948 0.433738
0.858152 0.636149 0.447425
0.957992 0.676387 0.509178
0.134371 0.797864 0.67982
0.310018 0.809354 0.662272
0.632517 0.829633 0.628
0.874815 0.846159 0.613809
0.967056 0.852201 0.633875
0.0671244 0.912642 0.798291
0.153506 0.918761 0.786908
0.428428 0.934569 0.745525
0.800153 0.954955 0.692485
0.960601 0.955383 0.672374
0.101854 0.0850385 0.258656
0.242283 0.105241 0.241932
0.565194 0.154131 0.241474
0.840833 0.220386 0.29424
0.947509 0.301183 0.402823
0.153826 0.29807 0.475013
0.309392 0.313237 0.451987
0.625696 0.352956 0.431052
0.859525 0.413123 0.458991
0.954009 0.481941 0.531701
0.209354 0.620172 0.708888
0.393103 0.632593 0.682658
0.685298 0.655436 0.648417
0.88394 0.682033 0.641398
0.966995 0.709712 0.668452
0.209491 0.822339 0.858351
0.399512 0.83534 0.834211
0.697795 0.853361 0.79379
0.888014 0.862959 0.76849
0.972549 0.863355 0.762081
0.0928206 0.916472 0.932403
0.184588 0.923095 0.918868
0.459968 0.938994 0.876173
0.804242 0.957992 0.821408
0.960784 0.957778 0.785809
0.198871 0.160571 0.501671
0.354559 0.179675 0.478614
0.654292 0.221302 0.466087
0.864469 0.280797 0.501793
0.952239 0.353643 0.574304
0.278599 0.39382 0.710918
0.453071 0.409598 0.681529
0.720836 0.440299 0.652888
0.887373 0.484092 0.657115
0.964126 0.535454 0.687877
0.340597 0.684733 0.869841
0.526589 0.694942 0.840238
0.761563 0.710231 0.806394
0.904891 0.726757 0.792035
0.973724 0.741604 0.793469
0.325338 0.846036 0.959594
0.516228 0.858228 0.934096
0.74873 0.86923 0.898054
0.906996 0.874876 0.872633
0.977798 0.870893 0.854307
0.138109 0.919722 0.998749
0.260594 0.927352 0.988602
0.502556 0.941894 0.960678
0.804242 0.958572 0.912184
0.962463 0.95819 0.874952
0.366598 0.269657 0.739361
0.533928 0.288014 0.715053
0.754925 0.320058 0.691707
0.892653 0.365072 0.698054
0.960723 0.423026 0.725292
0.469551 0.502632 0.860945
0.629694 0.515587 0.836927
0.805737 0.534585 0.812161
0.912749 0.560433 0.805249
0.971496 0.594644 0.812161
0.533989 0.739269 0.95462
0.685054 0.74992 0.934066
0.836439 0.759075 0.911543
0.926833 0.762997 0.895689
0.980407 0.765682 0.884398
0.498924 0.862196 0.994659
0.64358 0.87042 0.98468
0.808789 0.878294 0.965896
0.918456 0.88043 0.946273
0.982284 0.873228 0.929229
0.263172 0.92076 0.999786
0.383078 0.928862 0.999466
0.590982 0.941512 0.996292
0.820554 0.953201 0.980652
0.962264 0.95375 0.952255
