public/luts/film/leneu-chrome.cube
TITLE "Generated by Resolve"
LUT_3D_SIZE 33
0.00488289 0.00488289 0.00488289
0.0133059 0.00582895 0.00416571
0.0248264 0.00682078 0.00416571
0.0396887 0.00746166 0.00453193
0.0598306 0.00788891 0.00543221
0.0842145 0.00877394 0.00643931
0.11281 0.0102388 0.00776684
0.147646 0.0120546 0.00968948
0.184131 0.0140536 0.011841
0.222339 0.0163119 0.0143435
0.266499 0.019028 0.0178073
0.311284 0.0223087 0.0216526
0.356466 0.0262455 0.0258488
0.401328 0.0316625 0.0302281
0.447898 0.0381933 0.0361791
0.495277 0.0457008 0.0433051
0.539986 0.0532692 0.0497139
0.581888 0.0624094 0.0578012
0.622324 0.0728618 0.0669566
0.662531 0.0834669 0.0747387
0.697536 0.0966049 0.0864271
0.729229 0.110994 0.100404
0.76051 0.124895 0.113405
0.788159 0.140536 0.129549
0.813397 0.157061 0.147021
0.836774 0.174166 0.16463
0.858869 0.192584 0.182864
0.880262 0.212329 0.202472
0.899718 0.232914 0.224125
0.92047 0.252903 0.244755
0.938521 0.273365 0.265797
0.941421 0.294316 0.288243
0.946059 0.315084 0.310719
0.00726329 0.0130312 0.00637827
0.0140078 0.0141604 0.00621042
0.0277104 0.0145876 0.00666819
0.045304 0.0149996 0.00740063
0.0658274 0.0159304 0.00814832
0.0885786 0.0176394 0.00898756
0.114977 0.0195773 0.010132
0.148043 0.021973 0.0121614
0.183856 0.0247196 0.0144961
0.221515 0.027985 0.0170596
0.26183 0.0320439 0.0199588
0.30573 0.0368811 0.023743
0.34963 0.0421302 0.0279088
0.392828 0.0478523 0.0324254
0.440131 0.0552987 0.0390326
0.486137 0.0628824 0.0456092
0.530205 0.0706798 0.0521096
0.572869 0.0808728 0.0609903
0.614664 0.091371 0.0698405
0.655238 0.101671 0.078233
0.688869 0.114656 0.0912032
0.72195 0.128328 0.104845
0.75465 0.141649 0.117815
0.780957 0.158465 0.134463
0.806226 0.175814 0.151431
0.830854 0.193103 0.168429
0.853681 0.21117 0.187015
0.875868 0.230106 0.206928
0.897215 0.250202 0.22829
0.918608 0.26981 0.248249
0.931823 0.289891 0.269245
0.936019 0.310872 0.292302
0.944732 0.330419 0.314733
0.00724804 0.0263676 0.00918593
0.0150454 0.0270085 0.00929274
0.0298772 0.0276951 0.00967422
0.047425 0.0288548 0.0102083
0.0676585 0.0303807 0.0109865
0.0917067 0.0324407 0.0122988
0.118456 0.0346532 0.0137331
0.147158 0.037232 0.0154116
0.183871 0.0410163 0.0178378
0.221027 0.0448463 0.0202945
0.258747 0.0488289 0.022858
0.303349 0.0541695 0.0271611
0.347692 0.0598306 0.0319677
0.390997 0.0654154 0.0369879
0.437186 0.0726482 0.0433356
0.481605 0.0804913 0.0500343
0.525231 0.0888991 0.0572824
0.56875 0.0989853 0.0657054
0.610147 0.109209 0.0742962
0.650446 0.120394 0.084123
0.684291 0.133776 0.0972763
0.71812 0.14728 0.109819
0.75053 0.161593 0.12311
0.776333 0.178256 0.139956
0.801984 0.194278 0.156435
0.826993 0.21033 0.17293
0.850446 0.228962 0.192081
0.872633 0.248463 0.212009
0.893782 0.268177 0.231998
0.913863 0.287404 0.251621
0.924758 0.307042 0.27361
0.933471 0.326513 0.2963
0.945647 0.345266 0.318669
0.0078584 0.0437324 0.0124361
0.0173342 0.0441138 0.0123445
0.0323339 0.0448157 0.0127871
0.0503853 0.0459144 0.0136568
0.0705882 0.0471351 0.0147555
0.0948348 0.0496223 0.0162051
0.121538 0.0526436 0.0178073
0.151156 0.0558785 0.0196078
0.186679 0.059144 0.0216983
0.223194 0.0628824 0.024155
0.26244 0.0673686 0.0275731
0.30547 0.0722362 0.0315557
0.348592 0.0776226 0.0362097
0.392203 0.0840162 0.0417792
0.436774 0.0910506 0.0481422
0.479881 0.09897 0.0550698
0.523415 0.107759 0.0623941
0.56788 0.117983 0.0707103
0.60827 0.128862 0.079881
0.646448 0.140856 0.0905165
0.681315 0.154604 0.103151
0.71516 0.168276 0.114992
0.745556 0.183078 0.128878
0.771756 0.199405 0.145525
0.798245 0.215457 0.161593
0.823285 0.23238 0.17847
0.846448 0.250553 0.196948
0.868574 0.269459 0.216693
0.889128 0.287678 0.235966
0.908629 0.305501 0.255116
0.919982 0.324285 0.277623
0.933257 0.343221 0.300343
0.948562 0.361913 0.322377
0.00901808 0.06421 0.015671
0.0202335 0.0647135 0.0159152
0.0360876 0.0649271 0.0166018
0.0535592 0.0654917 0.0176394
0.0747387 0.0675212 0.0190433
0.098085 0.0701915 0.0204776
0.125383 0.0729229 0.0220188
0.156283 0.0758068 0.0243229
0.190692 0.0791028 0.0270848
0.228382 0.0830243 0.0300145
0.267826 0.0875257 0.0331579
0.309087 0.0927596 0.0367437
0.351675 0.0990463 0.0417945
0.394156 0.105714 0.0472419
0.437369 0.112734 0.0530404
0.481285 0.121492 0.0602579
0.525002 0.130495 0.0678111
0.567697 0.140124 0.0760662
0.606973 0.151751 0.0861219
0.643626 0.164294 0.0971542
0.678508 0.177661 0.108812
0.712047 0.191669 0.121065
0.741161 0.20737 0.136187
0.767971 0.223133 0.151904
0.794842 0.238407 0.166537
0.819348 0.255528 0.184115
0.842329 0.273121 0.202579
0.864622 0.290822 0.221241
0.88484 0.30837 0.240284
0.903349 0.326436 0.260761
0.917952 0.344717 0.282872
0.934874 0.362493 0.304158
0.949569 0.380102 0.324865
0.0129702 0.0873732 0.0204166
0.0253452 0.0871595 0.0207065
0.040238 0.0880446 0.0213321
0.0583047 0.0894789 0.0224308
0.0789807 0.0911879 0.0240024
0.102525 0.0933089 0.0258183
0.131701 0.0962539 0.0282444
0.162921 0.0992599 0.0308843
0.196735 0.102632 0.0336156
0.234791 0.107332 0.0366369
0.272953 0.112078 0.0394751
0.312917 0.117342 0.043061
0.356054 0.123583 0.048249
0.398199 0.129961 0.0533303
0.440986 0.13727 0.0592355
0.484398 0.146441 0.0667735
0.527047 0.156466 0.0746471
0.567651 0.167117 0.0833295
0.605509 0.179263 0.0934462
0.641657 0.192111 0.104768
0.676539 0.205463 0.116991
0.709484 0.218647 0.129534
0.73753 0.233539 0.144244
0.765148 0.248661 0.158648
0.792523 0.263066 0.172152
0.815991 0.279957 0.190494
0.838804 0.296788 0.208682
0.861952 0.313985 0.227192
0.88188 0.330907 0.246677
0.90071 0.348135 0.267185
0.918654 0.365805 0.288624
0.938888 0.382437 0.308461
0.949935 0.399008 0.328374
0.0167849 0.114794 0.0254368
0.0294804 0.115328 0.0259709
0.0452125 0.116289 0.0269474
0.0636454 0.117708 0.0284733
0.0845502 0.119249 0.0302129
0.109895 0.121416 0.0324102
0.138689 0.1243 0.0349889
0.168978 0.127687 0.0379187
0.203235 0.131518 0.0405737
0.240497 0.135683 0.0433051
0.278157 0.14052 0.0464179
0.319249 0.146304 0.0509041
0.361593 0.152499 0.0559396
0.402609 0.15906 0.0610666
0.445426 0.167895 0.06804
0.487739 0.177462 0.0753948
0.52903 0.187106 0.0823224
0.567895 0.198093 0.0917983
0.605249 0.209903 0.102937
0.642145 0.221057 0.114061
0.675563 0.233539 0.126009
0.706844 0.247303 0.138842
0.734966 0.261784 0.1523
0.762783 0.275654 0.165652
0.78967 0.290074 0.180163
0.813169 0.30692 0.198734
0.836301 0.322454 0.216266
0.859113 0.337926 0.234195
0.87982 0.354437 0.253941
0.899825 0.371038 0.274022
0.919692 0.387518 0.293767
0.939834 0.4038 0.313008
0.945342 0.420371 0.333623
0.0205692 0.145983 0.0318608
0.0357061 0.146975 0.0329595
0.0516823 0.148013 0.0342565
0.0696727 0.149065 0.0358892
0.0922255 0.151049 0.0381476
0.117281 0.15378 0.0407721
0.144518 0.156527 0.0430152
0.176104 0.15996 0.0454871
0.211505 0.163714 0.0482185
0.248539 0.168048 0.0515297
0.286824 0.173083 0.0554971
0.327153 0.179217 0.0603799
0.368277 0.186191 0.0659495
0.408698 0.193622 0.0716564
0.450401 0.202548 0.0782025
0.491051 0.211521 0.0848859
0.531548 0.220981 0.0920882
0.569512 0.231403 0.10248
0.606546 0.241856 0.112947
0.644007 0.252659 0.123568
0.675242 0.265385 0.13576
0.705242 0.278401 0.148272
0.734203 0.291646 0.161074
0.761654 0.304906 0.174685
0.787396 0.318685 0.190204
0.810925 0.333211 0.207431
0.834714 0.347829 0.224353
0.85713 0.362966 0.242145
0.878126 0.378943 0.261067
0.89836 0.395453 0.28069
0.917403 0.411658 0.299947
0.934524 0.427161 0.318776
0.938506 0.442649 0.339483
0.0265812 0.182071 0.0403296
0.0403449 0.182712 0.0416724
0.0566873 0.183963 0.0432288
0.0767529 0.186038 0.045304
0.0987106 0.188266 0.0472114
0.123629 0.190433 0.0493019
0.153536 0.193011 0.0518959
0.187182 0.196124 0.0550851
0.221698 0.198444 0.0582742
0.258717 0.202701 0.0622721
0.297398 0.208743 0.0671244
0.336019 0.214908 0.0716411
0.375586 0.222034 0.0768902
0.415763 0.230365 0.0827649
0.456275 0.238758 0.0887922
0.495537 0.247242 0.0958419
0.534157 0.256016 0.103777
0.572549 0.266056 0.114046
0.609476 0.2757 0.123735
0.644938 0.285878 0.133913
0.675242 0.298238 0.146151
0.704875 0.310353 0.158099
0.733867 0.322271 0.170382
0.760769 0.335058 0.184329
0.78587 0.349065 0.200595
0.81001 0.362768 0.216724
0.833738 0.376089 0.232166
0.855512 0.391226 0.250614
0.876158 0.406744 0.269734
0.8963 0.421592 0.288319
0.913314 0.436072 0.306874
0.926619 0.450721 0.326162
0.934203 0.465126 0.346334
0.0315251 0.222065 0.0503243
0.0449683 0.223499 0.0519265
0.0637369 0.225223 0.0534371
0.0836805 0.226871 0.0548104
0.10631 0.229252 0.0567636
0.133181 0.23125 0.0590372
0.164614 0.23357 0.0617685
0.197116 0.236164 0.0648203
0.231418 0.239536 0.0684672
0.268635 0.244709 0.0726787
0.306127 0.250065 0.0769818
0.344518 0.255879 0.0815747
0.383856 0.262409 0.0872358
0.423224 0.269062 0.0931716
0.462699 0.275425 0.0992752
0.501427 0.283497 0.107668
0.539178 0.291539 0.116243
0.576547 0.299931 0.125383
0.612436 0.309636 0.134829
0.645731 0.320119 0.145342
0.675685 0.331533 0.156619
0.705608 0.342473 0.167712
0.734264 0.354421 0.180728
0.760403 0.366812 0.195041
0.784924 0.37966 0.210483
0.809262 0.39237 0.225818
0.833249 0.405295 0.241321
0.853834 0.41976 0.259968
0.874296 0.43386 0.278096
0.89482 0.447944 0.296239
0.91014 0.461677 0.31458
0.922759 0.475471 0.333562
0.934005 0.489662 0.353445
0.0402075 0.265995 0.0608072
0.0562753 0.267399 0.0620279
0.072343 0.268971 0.0635233
0.0916152 0.270405 0.0650492
0.116579 0.272206 0.0672007
0.144625 0.274174 0.0696574
0.17467 0.276722 0.0721294
0.207172 0.279545 0.0751659
0.241856 0.283131 0.0787671
0.279133 0.287556 0.082948
0.316289 0.291966 0.0875257
0.354177 0.296529 0.0923934
0.392996 0.302281 0.0983749
0.431708 0.307988 0.104646
0.470161 0.313863 0.111147
0.507698 0.321599 0.11931
0.545312 0.329671 0.127825
0.581949 0.337713 0.136477
0.615869 0.346624 0.146059
0.647395 0.356268 0.156512
0.678096 0.366369 0.167605
0.708339 0.375784 0.178149
0.735119 0.386923 0.191745
0.760372 0.399115 0.206622
0.785199 0.410895 0.221088
0.8094 0.42295 0.236393
0.832105 0.435309 0.252384
0.852842 0.449012 0.270405
0.87361 0.461845 0.287465
0.892897 0.474617 0.304784
0.908309 0.487953 0.323476
0.922423 0.500862 0.342306
0.936919 0.513497 0.360967
0.0481422 0.309697 0.0716106
0.062974 0.310903 0.0730297
0.0806744 0.311955 0.0745556
0.103059 0.313787 0.0763409
0.128283 0.315526 0.0781567
0.154757 0.317189 0.0800031
0.183841 0.319219 0.0823072
0.218692 0.322484 0.0863661
0.253956 0.325536 0.0902113
0.289815 0.328618 0.0940414
0.326833 0.332784 0.0992447
0.364904 0.337499 0.104997
0.402579 0.341604 0.110674
0.440253 0.346746 0.116899
0.47834 0.353246 0.1243
0.515572 0.360113 0.131991
0.552773 0.36672 0.139544
0.587823 0.374044 0.14818
0.620035 0.383062 0.158526
0.651102 0.391852 0.168872
0.681407 0.400687 0.179232
0.711299 0.410163 0.190402
0.73666 0.421347 0.2047
0.761715 0.43241 0.218799
0.786847 0.443275 0.232822
0.810224 0.454902 0.2486
0.832013 0.46656 0.264668
0.852872 0.478431 0.281163
0.873915 0.490105 0.297475
0.891936 0.501854 0.314656
0.908003 0.513924 0.332845
0.924193 0.525917 0.351095
0.939452 0.537865 0.369375
0.0545968 0.353964 0.0824292
0.071458 0.35555 0.0841688
0.0910048 0.357015 0.0859388
0.112016 0.358007 0.0875715
0.136385 0.359045 0.0893263
0.165255 0.361273 0.0925154
0.197086 0.363333 0.0956588
0.231113 0.365118 0.0990311
0.265797 0.36759 0.102892
0.301686 0.370413 0.10753
0.338323 0.373861 0.112779
0.375235 0.377295 0.118135
0.412863 0.381323 0.124071
0.44979 0.386618 0.130678
0.487037 0.392279 0.137682
0.523934 0.398001 0.144671
0.560571 0.40444 0.152438
0.593103 0.411933 0.16173
0.62414 0.420035 0.171664
0.656092 0.428336 0.182055
0.685512 0.436896 0.193072
0.713283 0.446006 0.205188
0.738933 0.455985 0.218921
0.764691 0.465599 0.232273
0.789441 0.475135 0.245853
0.811505 0.485695 0.261067
0.832746 0.496513 0.276982
0.853681 0.506966 0.292409
0.874464 0.517189 0.307408
0.891966 0.528557 0.324758
0.909026 0.540352 0.342672
0.926375 0.551354 0.359945
0.938552 0.562478 0.37763
0.0643168 0.398123 0.0945602
0.0807813 0.399008 0.0962387
0.0999924 0.399832 0.0981003
0.122347 0.40116 0.100557
0.148562 0.402152 0.103044
0.178958 0.403571 0.105959
0.210529 0.404761 0.10901
0.243229 0.406531 0.11249
0.277729 0.408942 0.11693
0.313176 0.411597 0.121675
0.349599 0.414771 0.126802
0.386221 0.417746 0.131945
0.42269 0.42179 0.137774
0.459648 0.427298 0.144686
0.496544 0.432135 0.151339
0.532021 0.437247 0.158434
0.566094 0.443214 0.166598
0.598321 0.450858 0.176837
0.630152 0.457862 0.186526
0.662242 0.464775 0.19617
0.689921 0.473091 0.208148
0.716564 0.481621 0.220478
0.742473 0.489937 0.232685
0.768215 0.498116 0.244877
0.791714 0.507546 0.258869
0.813016 0.517159 0.273533
0.834028 0.526604 0.288014
0.854688 0.536156 0.302861
0.874754 0.546166 0.318502
0.892027 0.556725 0.335668
0.909758 0.566995 0.352438
0.926879 0.577508 0.369436
0.93576 0.587869 0.387549
0.0736858 0.439811 0.10724
0.0891432 0.441291 0.109361
0.109926 0.441993 0.111604
0.134966 0.442985 0.114229
0.16286 0.444389 0.117357
0.191577 0.445212 0.119951
0.222568 0.446189 0.123156
0.255116 0.447715 0.126894
0.290272 0.450294 0.131868
0.326177 0.452354 0.136446
0.362264 0.454612 0.141009
0.39823 0.458289 0.146929
0.43444 0.462181 0.153079
0.470542 0.466148 0.159274
0.506706 0.470146 0.165362
0.540703 0.475761 0.173877
0.573114 0.481804 0.183108
0.605219 0.488106 0.192401
0.637369 0.494606 0.201663
0.667964 0.501457 0.211627
0.694179 0.508736 0.22298
0.720409 0.515892 0.234165
0.746761 0.523476 0.24596
0.771679 0.530953 0.257969
0.793439 0.539437 0.271733
0.814649 0.547967 0.285618
0.836103 0.556344 0.29955
0.85597 0.565133 0.31458
0.87483 0.574228 0.33022
0.892851 0.58407 0.346868
0.911177 0.593164 0.362554
0.925566 0.602518 0.379232
0.932845 0.612741 0.398276
0.0809186 0.481926 0.12018
0.10135 0.482872 0.122866
0.124102 0.484215 0.125719
0.148669 0.484779 0.128389
0.174517 0.485267 0.131044
0.201938 0.485771 0.133837
0.235203 0.487373 0.13814
0.269154 0.488792 0.142107
0.303548 0.490318 0.146319
0.339605 0.492348 0.151125
0.374792 0.495079 0.156451
0.409323 0.498054 0.161883
0.444877 0.501305 0.167529
0.48043 0.505272 0.173953
0.515206 0.509194 0.180545
0.547494 0.514519 0.189029
0.580148 0.520165 0.197803
0.613275 0.525673 0.206485
0.64358 0.531273 0.215991
0.671839 0.53727 0.2262
0.698848 0.543832 0.237278
0.725643 0.549798 0.247913
0.750851 0.556283 0.259541
0.774319 0.563622 0.272404
0.795514 0.570855 0.285557
0.816983 0.577768 0.298375
0.838254 0.584741 0.311284
0.857206 0.593484 0.327016
0.875517 0.601923 0.342412
0.893614 0.610315 0.357809
0.911315 0.618753 0.373693
0.922728 0.627543 0.391135
0.930907 0.636591 0.409659
0.0979477 0.521935 0.135439
0.117006 0.52253 0.137636
0.137118 0.523049 0.139712
0.159762 0.523583 0.14197
0.187289 0.524926 0.145388
0.217441 0.525902 0.14905
0.250156 0.526955 0.15317
0.284062 0.528313 0.157382
0.317632 0.529946 0.161746
0.351507 0.532128 0.16672
0.385611 0.53434 0.17174
0.4206 0.53727 0.177478
0.456138 0.53991 0.182925
0.49012 0.543511 0.189715
0.523995 0.548043 0.197696
0.557046 0.552331 0.205539
0.59028 0.556558 0.213489
0.622614 0.560891 0.221973
0.650828 0.566308 0.232258
0.677913 0.571313 0.24239
0.704753 0.576364 0.252354
0.732219 0.58172 0.26276
0.755001 0.587915 0.274571
0.776379 0.594247 0.286656
0.797665 0.600198 0.29865
0.819577 0.606653 0.311192
0.839933 0.613336 0.324407
0.858106 0.621149 0.33959
0.8766 0.628733 0.354772
0.894102 0.636103 0.370092
0.910048 0.64361 0.385962
0.921035 0.651682 0.403738
0.932342 0.659907 0.421942
0.108675 0.559991 0.148409
0.127535 0.560937 0.150607
0.149462 0.561959 0.153811
0.173999 0.562844 0.156893
0.203159 0.563714 0.160632
0.233722 0.564935 0.164935
0.26479 0.565484 0.168673
0.297414 0.56672 0.173159
0.330022 0.568399 0.17789
0.3635 0.570886 0.18323
0.398169 0.572702 0.188052
0.43267 0.574685 0.19324
0.467903 0.577279 0.199283
0.500465 0.580697 0.20676
0.533639 0.584024 0.214099
0.566979 0.587121 0.221073
0.599893 0.590707 0.229175
0.629191 0.594598 0.237919
0.655665 0.599008 0.247379
0.683101 0.603586 0.257023
0.709758 0.607858 0.266438
0.735256 0.612543 0.276463
0.756832 0.618143 0.288197
0.778836 0.623804 0.300206
0.800809 0.629023 0.311803
0.821744 0.63473 0.324483
0.841031 0.641382 0.338704
0.859525 0.648005 0.353338
0.878279 0.654368 0.367788
0.89453 0.660945 0.3832
0.909194 0.668162 0.399756
0.922484 0.675288 0.416815
0.936324 0.682124 0.433295
0.119326 0.596979 0.163287
0.140871 0.597803 0.166796
0.165103 0.598505 0.170245
0.191073 0.599451 0.174151
0.218448 0.599649 0.177707
0.247288 0.600183 0.181231
0.277165 0.600977 0.185122
0.309178 0.602579 0.190097
0.341772 0.603998 0.194568
0.375402 0.605249 0.198779
0.410285 0.607156 0.203555
0.443153 0.609415 0.209354
0.4757 0.611872 0.215717
0.508812 0.614389 0.222583
0.542748 0.616983 0.229206
0.575479 0.61944 0.236027
0.60473 0.62266 0.244083
0.633021 0.626673 0.253071
0.66096 0.630381 0.26186
0.68925 0.633967 0.270405
0.714336 0.638148 0.280507
0.737804 0.642664 0.291417
0.760082 0.647135 0.302647
0.782803 0.651499 0.313695
0.804517 0.656474 0.325734
0.824079 0.661753 0.338903
0.842741 0.667338 0.352697
0.861662 0.672862 0.366506
0.881086 0.678523 0.380499
0.896071 0.684779 0.396063
0.910735 0.691051 0.411887
0.925856 0.697597 0.428183
0.939498 0.703548 0.44358
0.138247 0.631281 0.180987
0.158816 0.631891 0.184482
0.180941 0.63209 0.187366
0.204227 0.632303 0.190402
0.22974 0.632715 0.193851
0.25861 0.63357 0.197604
0.288396 0.634623 0.201587
0.319921 0.635798 0.205783
0.353918 0.637232 0.210208
0.387427 0.638422 0.214588
0.420325 0.640009 0.219425
0.452766 0.642069 0.225757
0.486259 0.644038 0.232074
0.519829 0.645808 0.238117
0.552605 0.647852 0.244404
0.583062 0.650858 0.252277
0.611048 0.653941 0.26041
0.63978 0.657084 0.268467
0.668803 0.660212 0.276539
0.69723 0.66334 0.285191
0.719371 0.666987 0.295842
0.741726 0.670527 0.306447
0.764721 0.674311 0.317418
0.787442 0.677867 0.327977
0.807446 0.682261 0.340185
0.82623 0.687099 0.353368
0.84538 0.692134 0.366781
0.864424 0.696925 0.380026
0.882765 0.701732 0.393622
0.898421 0.707774 0.4094
0.914809 0.713405 0.424567
0.930632 0.718898 0.439628
0.941421 0.724483 0.455116
0.151461 0.661006 0.196246
0.168032 0.661448 0.198795
0.186709 0.662043 0.20174
0.211032 0.662989 0.205417
0.238911 0.663905 0.209033
0.268635 0.664729 0.212757
0.299962 0.666041 0.216938
0.332143 0.667048 0.220691
0.365103 0.66804 0.224613
0.397147 0.669276 0.229587
0.429282 0.67068 0.235035
0.462119 0.671839 0.240513
0.495842 0.673106 0.246098
0.528908 0.674891 0.25243
0.55903 0.676783 0.259327
0.587793 0.679072 0.266606
0.616754 0.681407 0.274098
0.647059 0.684047 0.282078
0.674281 0.686625 0.290715
0.699199 0.689509 0.300038
0.722377 0.692897 0.310613
0.745693 0.69604 0.320729
0.768658 0.699367 0.331197
0.790494 0.703227 0.342657
0.809857 0.707347 0.355383
0.82916 0.711452 0.367758
0.848508 0.715434 0.379644
0.867002 0.720134 0.393225
0.884703 0.724758 0.40708
0.90164 0.729747 0.421561
0.919631 0.734783 0.436103
0.933349 0.739971 0.451102
0.940658 0.745235 0.466316
0.155276 0.689708 0.210758
0.175341 0.690623 0.213916
0.197864 0.691402 0.21709
0.224628 0.692256 0.220569
0.252964 0.693263 0.22414
0.28188 0.694148 0.227344
0.31284 0.694865 0.230411
0.34374 0.695659 0.234394
0.373587 0.696651 0.239338
0.405234 0.697246 0.243961
0.43769 0.69807 0.248844
0.471504 0.699245 0.254215
0.504448 0.700435 0.259907
0.534981 0.701869 0.266514
0.564675 0.70396 0.274281
0.594888 0.705776 0.281468
0.625147 0.707713 0.289067
0.654963 0.709651 0.297032
0.67982 0.712566 0.306996
0.703624 0.715297 0.316747
0.727687 0.718074 0.326574
0.75259 0.721065 0.336767
0.774533 0.724376 0.347707
0.793988 0.727901 0.359167
0.813214 0.731273 0.370535
0.833021 0.734829 0.38175
0.852369 0.738231 0.392676
0.870024 0.742428 0.40589
0.887831 0.746899 0.419593
0.905653 0.751324 0.433341
0.923369 0.755734 0.44715
0.933013 0.760525 0.462028
0.939498 0.765835 0.477607
0.16466 0.716503 0.223117
0.186526 0.717174 0.225925
0.210254 0.718013 0.229145
0.235157 0.718563 0.232044
0.261448 0.718914 0.23473
0.289052 0.719661 0.238361
0.317968 0.720394 0.242634
0.34844 0.721141 0.247196
0.379705 0.72192 0.25182
0.412802 0.722911 0.256794
0.446983 0.723888 0.261601
0.480232 0.725048 0.267033
0.510246 0.726757 0.274479
0.540658 0.728145 0.281575
0.57174 0.729397 0.288487
0.603937 0.73077 0.295735
0.633112 0.732815 0.304097
0.659556 0.734859 0.312642
0.683528 0.73698 0.321843
0.70837 0.739483 0.331151
0.73315 0.741833 0.340307
0.756939 0.74432 0.349706
0.776867 0.747295 0.36025
0.796567 0.750393 0.371038
0.816419 0.753307 0.381216
0.836301 0.756512 0.39202
0.855161 0.760159 0.404059
0.872908 0.764248 0.417441
0.891157 0.768063 0.430594
0.907912 0.772107 0.443931
0.922606 0.776623 0.458061
0.931853 0.78114 0.473243
0.941543 0.785657 0.488258
0.177279 0.741634 0.234348
0.197009 0.742123 0.237247
0.218448 0.742596 0.240284
0.241962 0.743343 0.243931
0.268177 0.743725 0.247288
0.295933 0.744427 0.251392
0.324926 0.745266 0.255818
0.357076 0.746227 0.260594
0.389624 0.74699 0.264973
0.423194 0.747677 0.26923
0.454627 0.748943 0.275441
0.485145 0.749981 0.281788
0.515877 0.751019 0.288487
0.547448 0.752239 0.295079
0.580453 0.753414 0.302022
0.613108 0.754406 0.308919
0.636713 0.756359 0.317388
0.661692 0.758251 0.326131
0.687587 0.75993 0.334813
0.713756 0.761761 0.34284
0.737621 0.763943 0.351843
0.759472 0.766629 0.361791
0.779644 0.769314 0.371969
0.800549 0.771878 0.382116
0.821698 0.774853 0.392844
0.840833 0.778088 0.404578
0.859068 0.781582 0.416999
0.877089 0.785153 0.429541
0.89604 0.788754 0.442237
0.910704 0.792584 0.455528
0.923201 0.796597 0.469429
0.934905 0.800839 0.484199
0.946944 0.804517 0.498421
0.184085 0.765484 0.246845
0.200717 0.766125 0.249516
0.22269 0.766445 0.252659
0.247044 0.766964 0.256214
0.274113 0.767712 0.260197
0.303258 0.768429 0.264179
0.333227 0.768994 0.267933
0.365118 0.76939 0.271748
0.397223 0.770245 0.276768
0.428458 0.770932 0.28191
0.458488 0.77171 0.287846
0.489982 0.772519 0.294118
0.523095 0.773434 0.300526
0.557122 0.774166 0.306798
0.586709 0.775326 0.313802
0.614328 0.776989 0.321859
0.64004 0.778561 0.329809
0.667262 0.779919 0.337987
0.694514 0.781445 0.346029
0.72163 0.783352 0.354849
0.742458 0.785763 0.364248
0.762936 0.78819 0.373968
0.784543 0.790677 0.384192
0.806348 0.792981 0.394095
0.826551 0.795621 0.404791
0.844694 0.798733 0.41648
0.863142 0.802136 0.428595
0.881376 0.805203 0.440299
0.899489 0.808362 0.452155
0.913024 0.812146 0.466102
0.926772 0.815641 0.479805
0.9411 0.818982 0.493568
0.951034 0.820981 0.506371
0.179324 0.787289 0.255329
0.199924 0.788067 0.258656
0.22472 0.788754 0.262531
0.250889 0.789456 0.266377
0.278691 0.789899 0.269825
0.308721 0.790311 0.27361
0.340002 0.790951 0.277943
0.371588 0.791409 0.282185
0.401297 0.791989 0.28806
0.432151 0.79266 0.293797
0.464195 0.793545 0.29955
0.497902 0.794247 0.305226
0.531029 0.794873 0.311269
0.562615 0.795941 0.318135
0.589364 0.797192 0.325505
0.6168 0.798398 0.33312
0.6448 0.799573 0.340719
0.675013 0.800824 0.34876
0.700542 0.802426 0.356878
0.722942 0.804349 0.365667
0.744701 0.806607 0.375387
0.766979 0.808606 0.384665
0.789502 0.810529 0.393973
0.810529 0.81294 0.404303
0.829557 0.815778 0.415412
0.847974 0.818692 0.426596
0.867018 0.821561 0.437888
0.885023 0.824674 0.450126
0.901823 0.82771 0.462593
0.917082 0.830762 0.475975
0.933364 0.833677 0.489067
0.947692 0.836042 0.501579
0.953079 0.8365 0.512367
0.185504 0.809125 0.266606
0.208408 0.809949 0.270527
0.233402 0.810391 0.273976
0.260578 0.810819 0.27744
0.289387 0.811368 0.2813
0.318486 0.811719 0.285374
0.347494 0.812268 0.290257
0.376806 0.812772 0.295369
0.406836 0.813519 0.300557
0.438712 0.814038 0.304952
0.472007 0.814435 0.309819
0.506035 0.815229 0.315541
0.534936 0.815991 0.321935
0.562829 0.816922 0.328771
0.591318 0.81796 0.336294
0.621485 0.818921 0.343709
0.651347 0.819959 0.351247
0.679698 0.821164 0.359121
0.702876 0.823056 0.3682
0.725521 0.824765 0.377111
0.749004 0.826444 0.386084
0.773388 0.828229 0.395392
0.795636 0.830259 0.405325
0.814466 0.832807 0.415885
