public/luts/film/leneu-chrome.cube
TITLE "Generated by Resolve"
LUT_3D_SIZE 5
0.00488289 0.00488289 0.00488289
0.184131 0.0140536 0.011841
0.539986 0.0532692 0.0497139
0.813397 0.157061 0.147021
0.946059 0.315084 0.310719
0.0265812 0.182071 0.0403296
0.221698 0.198444 0.0582742
0.534157 0.256016 0.103777
0.78587 0.349065 0.200595
0.934203 0.465126 0.346334
0.0979477 0.521935 0.135439
0.317632 0.529946 0.161746
0.59028 0.556558 0.213489
0.797665 0.600198 0.29865
0.932342 0.659907 0.421942
0.184085 0.765484 0.246845
0.397223 0.770245 0.276768
0.64004 0.778561 0.329809
0.826551 0.795621 0.404791
0.951034 0.820981 0.506371
0.158816 0.919188 0.27042
0.355718 0.919646 0.296605
0.618509 0.921065 0.342779
0.817838 0.926863 0.401968
0.956054 0.929961 0.480354
0.00968948 0.0106203 0.101411
0.197391 0.0239872 0.110811
0.531624 0.0702525 0.166857
0.797574 0.172564 0.277684
0.942473 0.32166 0.414878
0.033814 0.231708 0.237079
0.243763 0.24715 0.245274
0.547875 0.29482 0.285374
0.785428 0.377737 0.365728
0.934554 0.480568 0.47361
0.107988 0.561044 0.380133
0.330648 0.5682 0.392462
0.600732 0.588251 0.421942
0.79942 0.624384 0.475486
0.936904 0.677623 0.560494
0.174228 0.782345 0.487526
0.395666 0.787182 0.506584
0.644511 0.795209 0.538354
0.828962 0.812512 0.58143
0.95137 0.831067 0.637156
0.135485 0.920546 0.515435
0.315297 0.920256 0.527077
0.591012 0.923674 0.551034
0.808881 0.930922 0.581888
0.956054 0.934951 0.620951
0.0242771 0.0323796 0.304921
0.230243 0.0535592 0.311635
0.549203 0.105013 0.359731
0.791348 0.203021 0.439216
0.94667 0.340124 0.540505
0.0603647 0.28983 0.4804
0.281071 0.304265 0.476631
0.571618 0.344366 0.492958
0.791363 0.413458 0.541863
0.93579 0.504829 0.610727
0.127321 0.596445 0.604532
0.351507 0.603525 0.606546
0.612131 0.619654 0.617395
0.806439 0.650507 0.644175
0.942107 0.697902 0.692103
0.19234 0.79881 0.685756
0.3991 0.804608 0.694804
0.654704 0.813626 0.70753
0.829938 0.826642 0.726665
0.947692 0.83743 0.747707
0.138338 0.916823 0.695674
0.279347 0.918791 0.698894
0.557641 0.923858 0.709346
0.7935 0.932525 0.725536
0.949218 0.938186 0.740734
0.0655985 0.0857557 0.556176
0.28426 0.109789 0.55314
0.571206 0.159503 0.567834
0.790906 0.25034 0.610544
0.932967 0.366537 0.666712
0.106355 0.348989 0.685389
0.329198 0.364263 0.674891
0.598062 0.396796 0.67628
0.797009 0.453239 0.695476
0.933242 0.532326 0.730587
0.162753 0.628031 0.762173
0.380102 0.635233 0.761456
0.627222 0.650172 0.762692
0.812848 0.678798 0.773541
0.939651 0.716518 0.796643
0.189303 0.808789 0.815045
0.404959 0.812543 0.815427
0.644541 0.818967 0.819883
0.82594 0.829618 0.828351
0.948577 0.837873 0.833585
0.0928969 0.91133 0.812696
0.243442 0.913756 0.811704
0.515145 0.918441 0.816983
0.761273 0.929931 0.827802
0.941344 0.937514 0.834882
0.127779 0.157107 0.762356
0.340749 0.18024 0.752773
0.596826 0.227146 0.746365
0.794553 0.300999 0.757214
0.930495 0.397925 0.782879
0.163577 0.39881 0.825864
0.376394 0.413825 0.818494
0.619837 0.442832 0.814618
0.805341 0.489906 0.820661
0.929656 0.560204 0.835538
0.202472 0.649561 0.880781
0.407904 0.66009 0.881178
0.648157 0.675563 0.877317
0.816724 0.694591 0.878752
0.937728 0.717098 0.881224
0.186343 0.79765 0.908324
0.369406 0.801755 0.907591
0.614023 0.80885 0.907149
0.801938 0.819226 0.909255
0.938415 0.827466 0.911086
0.0975204 0.895201 0.910002
0.171771 0.896895 0.908965
0.418891 0.902892 0.910262
0.705379 0.914382 0.917266
0.919951 0.926436 0.924178
